**kern	**kern	**kern	**kern	**dynam
*part4	*part3	*part2	*part1	*part1
*staff4	*staff3	*staff2	*staff1	*
*I"Cello	*I"Viola	*I"2nd Violin	*I"1st Violin	*
*clefF4	*clefC3	*clefG2	*clefG2	*
*k[]	*k[]	*k[]	*k[]	*
*C:	*C:	*C:	*C:	*
*M4/4	*M4/4	*M4/4	*M4/4	*
*met(c)	*met(c)	*met(c)	*met(c)	*
=1	=1	=1	=1	=1
!	!	!	!LO:TX:a:B:t=Presto	!
4AA	4c 4e 4a	4cc 4ee	4aa	.
4r	4r	4r	4r	.
4A	4d 4f 4a	4dd 4ff	4aa	.
4r	4r	4r	4r	.
=2	=2	=2	=2	=2
*	*^	*	*	*
2.A	2.a	4c 4e	2.cc 2.ee	2.eee	.
.	.	4rB	.	.	.
.	.	4rB	.	.	.
*	*v	*v	*	*	*
4r	8ffL	8gg#XL	8dddL	.
.	8ffJ	8gg#J	8bbJ	.
=3	=3	=3	=3	=3
4r	4ee	4aa	8cccL	.
.	.	.	8aa	.
8EL	8ddL	8ffL	8gg#X	.
8EJ	8ddJ	8ffJ	8bbJ	.
4A	4cc	4ee	8aaL	.
.	.	.	8ee	.
8eL	8g#XL	8bL	8dd	.
8eJ	8g#J	8bJ	8ffJ	.
=4	=4	=4	=4	=4
.	.	8qdd/	8qff/	sf
2.a	2.a	8ccL	8eeL	.
.	.	8bJ	8ddJ	.
.	.	8ccL	8eeL	.
.	.	8ddJ	8ffJ	.
.	.	4cc	4ee	.
4r	4r	4r	4r	.
=5	=5	=5	=5	=5
4B	4B 4e	4g#X 4b	4b	.
4r	4r	4r	4r	.
4BB	4B 4f#X	4a	4b	.
4r	4r	4r	4r	.
=6	=6	=6	=6	=6
2.E	2.B 2.e	2.g#X 2.b	2.gg#X	.
4r	8aL	8ccL	8ff#XL	.
.	8aJ	8ccJ	8dd#XJ	.
=7	=7	=7	=7	=7
4r	4g#X	4b	8eeL	.
.	.	.	8b	.
8BBL	8d#XL	8f#XL	8a	.
8BBJ	8d#J	8f#J	8ccJ	.
8E	8e	8g#X	8bL	.
8r	8r	8r	8g#X	.
8BL	8cL	8d#XL	8f#X	.
8BJ	8cJ	8d#J	8aJ	.
=8	=8	=8	=8	=8
8e	4B	4e	8g#XL	.
8r	.	.	8e	.
4r	4r	4r	8d#X	.
.	.	.	8eJ	.
2r	2r	2r	8d#L	.
.	.	.	8e	.
.	.	.	8f#X	.
.	.	.	8g#J	.
=9	=9	=9	=9	=9
!LO:TX:a:t=pizz.	!	!	!	!
4AA'	4c' 4e	(4.e	4a	.
4r	4r	.	4r	.
.	.	16f#XLL	.	.
.	.	16g#XJJ)	.	.
!	!	!	!LO:TX:a:t=pizz.	!
4A'	4d' 4f	4a'	4d 4f 4a	.
4r	4r	4cc'	4r	.
=10	=10	=10	=10	=10
!!linebreak:original
!	!	!	!LO:TX:a:t=arco	!
4AA	4c 4e 4a	8eeL	(4.ee	.
.	.	8ccJ	.	.
4r	4r	2a	.	.
.	.	.	16ff#XLL	.
.	.	.	16gg#XJJ)	.
*	*^	*	*	*
2r	4a	8d 8f	.	4aa'	.
.	.	8rB	.	.	.
*	*v	*v	*	*	*
.	4r	4a	4ccc'	.
=11	=11	=11	=11	=11
4AA	4c 4e 4a	4cc	(8eeeL	.
.	.	.	8cccJ)	.
!LO:TX:a:t=arco	!	!	!	!
2BB	2e	2dd	(2gg	.
4BB	4e	4dd	4gg#X)	.
=12	=12	=12	=12	=12
4C	4e	4a	(8aaL	.
.	.	.	8ffJ)	.
2C#X	2g	2a#X	(2dd#X	.
4C#	4g	4a#	4ee)	.
=13	=13	=13	=13	=13
2D	2f	2a#X	(8ffL	.
.	.	.	8ddn)	.
.	.	.	8b-X	.
.	.	.	8ddJ	.
4r	4r	4r	8fL	.
.	.	.	8b-	.
4D'	4f'	4a#'	8d	.
.	.	.	8fJ	.
=14	=14	=14	=14	=14
4r	4r	4r	8eL	.
.	.	.	8g#X	.
4E	4d	4g#X	8b	.
.	.	.	8eeJ	.
4r	4r	4r	8aL	.
.	.	.	8cc	.
4AA	4c 4e	4a	8ee	.
.	.	.	8aaJ	.
=15	=15	=15	=15	=15
!	!	!	!	!
2D	2f	2a#X	8ggL	.
.	.	.	8ff	.
.	.	.	8dd	.
.	.	.	8ffJ	.
4r	4r	4r	8b-XL	.
.	.	.	8dd	.
4D	4f	4a#	8f	.
.	.	.	8b-J	.
=16	=16	=16	=16	=16
4r	4r	4r	8eL	.
.	.	.	8g#X	.
4E	4d	4g#X	8b	.
.	.	.	8eeJ	.
4r	4r	4r	8aL	.
.	.	.	8cc	.
4AA	4c 4e	4a	8ee	.
.	.	.	8aaJ	.
=17	=17	=17	=17	=17
4B	4d	4g 4dd	8ggL	.
.	.	.	8G	.
4r	4r	4r	8g	.
.	.	.	8GJ	.
4c	4e	4g 4ee	8gL	.
.	.	.	8g	.
4r	4r	4r	8gg	.
.	.	.	8gJ	.
=18	=18	=18	=18	=18
!	!	!	!	!
*	*	*^	*	*
2.d	2.f	2.g 2.dd	4G	2.ggg	.
.	.	.	4rA	.	.
.	.	.	4rA	.	.
*	*	*v	*v	*	*
8BL	8dL	8gL	8fffL	.
8BJ	8dJ	8gJ	8dddJ	.
=19	=19	=19	=19	=19
!!linebreak:original
8c	8e	8g	8eeeL	.
8r	8r	8r	8ccc	.
8dL	8fL	8bL	8bb	.
8dJ	8fJ	8bJ	8dddJ	.
8e	8g	8cc	8cccL	.
8r	8r	8r	8gg	.
8eL	8ccL	8ccL	8bb	.
8eJ	8ccJ	8ccJ	8ggJ	.
=20	=20	=20	=20	=20
4f	4cc	4cc	8aaL	.
.	.	.	8ff	.
4g	4cc	4cc	8gg	.
.	.	.	8eeJ	.
4a	4cc	4cc	8ffL	.
.	.	.	8cc	.
4g	4cc	4cc	8ee	.
.	.	.	8ccJ	.
=21	=21	=21	=21	=21
2f#X	2a	2cc	2dd	.
2f#	2a	2cc	2dd	.
=22	=22	=22	=22	=22
2GG 2D	2G 2f	2g 2dd	2b 2gg	.
2GG 2D	2G 2f	2g 2dd	2b 2gg	.
=23	=23	=23	=23	=23
!	!	!	!	!
1CC 1C	2.C	2.c	8cL	.
.	.	.	8e	.
.	.	.	8d	.
.	.	.	8fJ	.
.	.	.	8eL	.
.	.	.	8g	.
.	8fL	8fL	8f	.
.	8aJ	8aJ	8aJ	.
=24	=24	=24	=24	=24
1CC 1GG	8GL	8GL	8GL	.
.	8B	8B	8B	.
.	8A	8A	8A	.
.	8cJ	8cJ	8cJ	.
.	8BL	8BL	8BL	.
.	8d	8d	8d	.
.	8c	8c	8c	.
.	8eJ	8eJ	8eJ	.
=25	=25	=25	=25	=25
!	!	!	!	!
1CC 1C	2.C	2.c	2.c	.
.	8fL	8fL	8fL	.
.	8aJ	8aJ	8aJ	.
=26	=26	=26	=26	=26
2.CC 2.GG	8GL	8GL	8GL	.
.	8B	8B	8B	.
.	8A	8A	8A	.
.	8cJ	8cJ	8cJ	.
.	8BL	8BL	8BL	.
.	8d	8d	8d	.
4CC 4GG	8c	8c	8c	.
.	8eJ	8eJ	8eJ	.
=27	=27	=27	=27	=27
2CC 2C	2.C	8cL	8cL	.
.	.	8e	8e	.
.	.	8d	8d	.
.	.	8fJ	8fJ	.
!	!	!	!	!
4r	.	8eL	8eL	.
.	.	8g	8g	.
8FL	8fL	8f	8f	.
8AJ	8aJ	8aJ	8aJ	.
=28	=28	=28	=28	=28
!!linebreak:original
8G#XL	8g#XL	8g#XL	8g#XL	.
8B	8b	8b	8b	.
8A	8a	8a	8a	.
8cJ	8ccJ	8ccJ	8ccJ	.
8BL	8bL	8bL	8bL	.
8d	8dd	8dd	8dd	.
8c	8cc	8cc	8cc	.
8eJ	8eeJ	8eeJ	8eeJ	.
=29	=29	=29	=29	=29
8AAL	2.A	2.A	8AL	.
8C	.	.	8c	.
8BB	.	.	8B	.
8DJ	.	.	8dJ	.
8CL	.	.	8cL	.
8E	.	.	8e	.
8D	8dL	8dL	8d	.
8FJ	8fJ	8fJ	8fJ	.
=30	=30	=30	=30	=30
8EL	8eL	8eL	8eL	.
8G#X	8g#X	8g#X	8g#X	.
8F#X	8f#X	8f#X	8f#X	.
8AJ	8aJ	8aJ	8aJ	.
8G#L	8g#L	8g#L	8g#L	.
8B	8b	8b	8b	.
8A	8a	8a	8a	.
8cJ	8ccJ	8ccJ	8ccJ	.
=31	=31	=31	=31	=31
[1FF	2r	1fn	8fL	.
.	.	.	8a	p
.	.	.	8g	.
.	.	.	8a-XJ	.
!	!LO:TX:a:i:t=marcato	!	!	!
.	(2C	.	8anL	.
.	.	.	8cc	.
.	.	.	8b-X	.
.	.	.	8ddJ	.
=32	=32	=32	=32	=32
1FF]	2.B-X)	1c	8cL	.
.	.	.	8e	.
.	.	.	8d	.
.	.	.	8fJ	.
.	.	.	8eL	.
.	.	.	8g	.
.	4r	.	8f	.
.	.	.	8aJ	.
=33	=33	=33	=33	=33
[1FF	2r	1f	8AL	.
.	.	.	8a	.
.	.	.	8g	.
.	.	.	8b-XJ	.
.	(2C	.	8aL	.
.	.	.	8cc	.
.	.	.	8b-	.
.	.	.	8ddJ	.
=34	=34	=34	=34	=34
!	!	!	!	!
1FF]	2.B-X)	1c	8cL	.
.	.	.	8e	.
.	.	.	8d	.
.	.	.	8fJ	.
.	.	.	8eL	.
.	.	.	8g	.
.	4r	.	8f	.
.	.	.	8aJ	.
=35	=35	=35	=35	=35
8FFL	1r	1r	1r	.
!	!	!	!	!
8AA	.	.	.	.
8GG	.	.	.	.
8BB-XJ	.	.	.	.
8AAL	.	.	.	.
8C	.	.	.	.
8BB-	.	.	.	.
8DJ	.	.	.	.
=36	=36	=36	=36	=36
!!linebreak:original
2.EE	8eL	(8dL	(8g#XL	.
.	8e	8e	8e	.
.	8e	8d	8g#	.
.	8eJ	8eJ	8eJ	.
.	2e	8cL	8ccL	.
.	.	8e	8a	.
4r	.	8c	8cc	.
.	.	8eJ)	8aJ)	.
=37	=37	=37	=37	=37
8FFL	1r	1r	1r	.
8AA	.	.	.	.
8GG	.	.	.	.
8BB-XJ	.	.	.	.
8AAL	.	.	.	.
8C	.	.	.	.
8BB-	.	.	.	.
8DJ	.	.	.	.
=38	=38	=38	=38	=38
2.EE	8eL	(8dL	(8g#XL	.
.	8e	8e	8e	.
.	8e	8d	8g#	.
.	8eJ	8eJ	8eJ	.
.	2e	8cL	8ccL	.
.	.	8e	8a	.
4r	.	8c	8cc	.
.	.	8eJ)	8aJ)	.
=39	=39	=39	=39	=39
8DL	8dL	1r	1r	.
8F	8f	.	.	.
8E	8e	.	.	.
8GJ	8gJ	.	.	.
8FL	8fL	.	.	.
8A	8a	.	.	.
8G	8g	.	.	.
8B-XJ	8b-XJ	.	.	.
*clefG2	*	*	*	*
=40	=40	=40	=40	=40
!	!	!	!	!
2.aa	1r	(8gL	(8cc#XL	.
.	.	8a	8a	.
.	.	8g	8cc#	.
.	.	8aJ	8aJ	.
.	.	8fL	8ffL	.
.	.	8a	8dd	.
4r	.	8f	8ff	.
.	.	8aJ)	8ddJ)	.
*clefF4	*	*	*	*
=41	=41	=41	=41	=41
8DL	8dL	1r	1r	.
8F	8f	.	.	.
8E	8e	.	.	.
8GJ	8gJ	.	.	.
8FL	8fL	.	.	.
8A	8a	.	.	.
8G	8g	.	.	.
8B-XJ	8b-XJ	.	.	.
*clefG2	*	*	*	*
=42	=42	=42	=42	=42
!	!	!	!	!
2.aa	1r	(8gL	(8cc#XL	.
.	.	8a	8a	.
.	.	8g	8cc#	.
.	.	8aJ	8aJ	.
.	.	8fL	8ffL	.
.	.	8a	8dd	.
4r	.	8f	8ff	.
.	.	8aJ)	8ddJ)	.
*clefF4	*clefG2	*	*	*
=43	=43	=43	=43	=43
!	!LO:TX:a:i:t=marcato	!	!	!
[1GG	4a	(8ddL	(8ffL	.
.	.	8ff	8aa	.
.	4r	8dd	8ff	.
.	.	8ffJ	8aaJ	.
.	4a	8ddL	8ffL	.
.	.	8ff	8aa	.
.	4r	8dd	8ff	.
.	.	8ffJ)	8aaJ)	.
=44	=44	=44	=44	=44
!!linebreak:original
1GG_	2.ff	(8ddL	(8ffL	.
.	.	8ff	8aa	.
.	.	8dd	8ff	.
.	.	8ffJ	8aaJ	.
.	.	8ddL	8ffL	.
.	.	8ff	8aa	.
.	8eeL	8dd	8ff	.
.	8ddJ	8ffJ)	8aaJ)	.
=45	=45	=45	=45	=45
1GG_	8ccL	(8ddL	(8ffL	.
.	8b	8ff	8aa	.
.	8a	8dd	8ff	.
.	8gJ	8ffJ	8aaJ	.
.	8fL	8ddL	8ffL	.
.	8e	8ff	8aa	.
.	8d	8dd	8ff	.
.	8cJ	8ffJ	8aaJ	.
=46	=46	=46	=46	=46
1GG]	2B	8ddL	8ffL	.
.	.	8ff	8aa	.
.	.	8dd	8ff	.
.	.	8ffJ	8aaJ	.
.	2B	8ddL	8ffL	.
.	.	8ff	8aa	.
.	.	8dd	8ff	.
.	.	8ffJ)	8aaJ)	.
=47	=47	=47	=47	=47
!LO:TX:b:i:t=cresc.	!LO:TX:b:i:t=cresc.	!LO:TX:b:i:t=cresc.	!LO:TX:b:i:t=cresc.	!
[1FF#X	4B'	(8dd#XL	(8ff#XL	.
.	.	8ff#X	8aa	.
.	4r	8dd#	8ff#	.
.	.	8ff#J	8aaJ	.
.	4B'	8dd#L	8ff#L	.
.	.	8ff#	8aa	.
.	4r	8dd#	8ff#	.
.	.	8ff#J	8aaJ	.
=48	=48	=48	=48	=48
1FF#X_	2.a	8dd#XL	8ff#XL	.
.	.	8ff#X	8aa	.
.	.	8dd#	8ff#	.
.	.	8ff#J	8aaJ	.
.	.	8dd#L	8ff#L	.
.	.	8ff#	8aa	.
.	8gL	8dd#	8ff#	.
.	8f#XJ	8ff#J)	8aaJ)	.
*	*clefC3	*	*	*
=49	=49	=49	=49	=49
1FF#X]	8eL	(8dd#XL	(8ff#XL	.
.	8d#X	8ff#X	8aa	.
.	8c	8dd#	8ff#	.
.	8BJ	8ff#J	8aaJ	.
.	8AL	8dd#L	8ff#L	.
.	8G	8ff#	8aa	.
.	8F#X	8dd#	8ff#	.
.	8EJ	8ff#J	8aaJ	.
=50	=50	=50	=50	=50
[1BB	2D#X	8dd#XL	8ff#XL	.
.	.	8ff#X	8aa	.
.	.	8dd#	8ff#	.
.	.	8ff#J	8aaJ	.
.	2D#	8dd#L	8ff#L	.
.	.	8ff#	8aa	.
.	.	8dd#	8ff#	.
.	.	8ff#J)	8aaJ)	.
=51	=51	=51	=51	=51
1BB_	(8dnL	(8fnL	4aa	.
.	8f	8a	.	.
.	8d	8f	4r	.
.	8fJ	8aJ	.	.
!	!	!	!LO:TX:b:i:t=marcato	!
.	8dL	8fL	4aa	.
.	8f	8a	.	.
.	8d	8f	4r	.
.	8fJ)	8aJ)	.	.
=52	=52	=52	=52	=52
!!linebreak:original
1BB_	(8dL	(8fL	2.fffn^	.
.	8f	8a	.	.
.	8d	8f	.	.
.	8fJ	8aJ	.	.
.	8dL	8fL	.	.
.	8f	8a	.	.
.	8d	8f	8eeeL	.
.	8fJ)	8aJ)	8dddJ	.
=53	=53	=53	=53	=53
1BB_	(8dL	(8fL	8cccL	.
.	8f	8a	8bb	.
.	8d	8f	8aa	.
.	8fJ	8aJ	8ggJ	.
.	8dL	8fL	8ffL	.
.	8f	8a	8ee	.
.	8d	8f	8dd	.
.	8fJ	8aJ	8ccJ	.
=54	=54	=54	=54	=54
1BB]	8dL	8fL	2b	.
.	8f	8a	.	.
.	8d	8f	.	.
.	8fJ	8aJ	.	.
.	8dL	8fL	2b	.
.	8f	8a	.	.
.	8d	8f	.	.
.	8fJ)	8aJ)	.	.
=55	=55	=55	=55	=55
!	!	!LO:TX:b:i:t=marcato	!	!
[1EE	(8dL	4b	(8eL	.
.	8e	.	8g	.
.	8d	4r	8e	.
.	8eJ	.	8gJ	.
.	8dL	4b	8eL	.
.	8e	.	8g	.
.	8d	4r	8e	.
.	8eJ	.	8gJ	.
=56	=56	=56	=56	=56
1EE_	8dL	2.gg^	8eL	.
.	8e	.	8g	.
.	8d	.	8e	.
.	8eJ	.	8gJ	.
.	8dL	.	8eL	.
.	8e	.	8g	.
.	8d	8ff#XL	8e	.
.	8eJ)	8eeJ	8gJ)	.
=57	=57	=57	=57	=57
1EE]	(8dL	8ddL	(8eL	.
.	8e	8cc	8g	.
.	8d	8b	8e	.
.	8eJ	8aJ	8gJ	.
.	8dL	8gL	8eL	.
.	8e	8f#X	8g	.
.	8d	8e	8e	.
.	8eJ	8dJ	8gJ	.
=58	=58	=58	=58	=58
1AA	8cL	2c	8eL	.
.	8e	.	8g	.
.	8c	.	8e	.
.	8eJ	.	8gJ	.
.	8cL	2c	8eL	.
.	8e	.	8g	.
.	8c	.	8e	.
.	8eJ)	.	8gJ)	.
=59	=59	=59	=59	=59
1DD	(8cL	(8eL	4a	.
.	8e	8fn	.	.
.	8c	8e	4r	.
.	8eJ	8fJ	.	.
.	8cL	8eL	4a	.
.	8e	8f	.	.
.	8c	8e	4r	.
.	8eJ)	8fJ)	.	.
=60	=60	=60	=60	=60
!!linebreak:original
!LO:TX:b:i:t=cresc.	!	!	!	!
2DD'	(8BL	(8dL	2.ff^	.
.	8d	8f	.	.
.	8B	8d	.	.
.	8dJ	8fJ	.	.
2DD'	8AL	8cL	.	.
.	8c	8f	.	.
.	8A	8c	8eeL	.
.	8cJ)	8fJ)	8ddJ	.
=61	=61	=61	=61	=61
2.GG^	8BL	8dL	8ccL	.
!	!	!LO:TX:b:i:t=cresc.	!LO:TX:b:i:t=cresc.	!
.	8d	8f	8b	.
.	8B	8d	8a	.
.	8dJ	8fJ	8gJ	.
.	8BL	8dL	8fL	.
.	8d	8f	8e	.
!LO:TX:b:i:t=cresc.	!	!	!	!
!LO:TX:a:i:t=cresc.	!	!	!	!
8FL	8B	8d	8d	.
8EJ	8dJ	8fJ	8cJ	.
=62	=62	=62	=62	=62
*	*	*^	*	*
8DL	8BL	1G	8dL	8BL	.
8C	8d	.	8fJ	8c	.
8BB	8B	.	8dL	8d	.
8AAJ	8dJ	.	8fJ	8eJ	.
8GGL	8BL	.	8dL	8fL	.
8FF	8d	.	8fJ	8g	.
8EE	8B	.	8dL	8a	.
8DDJ	8dJ	.	8fJ	8bJ	.
*	*	*v	*v	*	*
=63	=63	=63	=63	=63
1CC	2cc	2cc	8ccL	.
.	.	.	8ee	.
.	.	.	8dd	.
.	.	.	8ffJ	.
!	!	!LO:TX:a:i:t=marcatissimo	!	!
!	!	!LO:TX:b:i:t=marcatissimo	!	!
.	2cc	2cc	8eeL	.
.	.	.	8gg	.
.	.	.	8ff	.
.	.	.	8aaJ	.
=64	=64	=64	=64	=64
1CC 1GG	2.g	2.a	8gL	.
.	.	.	8b	.
.	.	.	8a	.
.	.	.	8ccJ	.
.	.	.	8bL	.
.	.	.	8dd	.
.	4g'	4g'	8cc	.
.	.	.	8eeJ	.
=65	=65	=65	=65	=65
1CC	4e'	4e'	8cL	.
.	.	.	8e	.
.	4d'	4d'	8d	.
.	.	.	8fJ	.
.	4c'	4c'	8eL	.
.	.	.	8g	.
.	4c'	4c'	8f	.
.	.	.	8aJ	.
=66	=66	=66	=66	=66
1CC 1GG	4B'	4B'	8GL	.
.	.	.	8B	.
.	4A'	4A'	8A	.
.	.	.	8cJ	.
.	2G	2G	8BL	.
.	.	.	8d	.
.	.	.	8c	.
.	.	.	8eJ	.
=67	=67	=67	=67	=67
1CC	8cL	8ccL	2ccc	.
.	8e	8ee	.	.
.	8d	8dd	.	.
.	8fJ	8ffJ	.	.
.	8eL	8eeL	2ccc	.
.	8g	8gg	.	.
.	8f	8ff	.	.
.	8aJ	8aaJ	.	.
=68	=68	=68	=68	=68
!!linebreak:original
1CC 1GG	8GL	8gL	2.gg	.
.	8B	8b	.	.
.	8A	8a	.	.
.	8cJ	8ccJ	.	.
.	8BL	8bL	.	.
.	8d	8dd	.	.
.	8c	8cc	4gg'	.
.	8eJ	8eeJ	.	.
=69	=69	=69	=69	=69
1CC	8cL	8cL	4ee'	.
.	8e	8e	.	.
.	8d	8d	4dd'	.
.	8fJ	8fJ	.	.
.	8eL	8eL	4cc'	.
.	8g	8g	.	.
.	8f	8f	4cc'	.
.	8aJ	8aJ	.	.
=70	=70	=70	=70	=70
1CC 1GG	8GL	8GL	4b'	.
.	8B	8A#X 8B	.	.
.	8A	8An	4a'	.
.	8cJ	8cJ	.	.
.	8BL	8BL	2g	.
.	8d	8d	.	.
.	8c	8c	.	.
.	8eJ	8eJ	.	.
=71	=71	=71	=71	=71
2CC	(2c	(2c	8cL	.
.	.	.	8e	.
.	.	.	8d	.
!	!	!	!	!LO:DY:a
.	.	.	8fJ	ff
!	!	!	!	!
2CC 2GG	2C) 2G	2B)	8eL	.
.	.	.	8g	.
.	.	.	8f	.
.	.	.	8aJ	.
=72	=72	=72	=72	=72
!	!	!	!	!
2CC	(2c	(2c	8cL	.
.	.	.	8e	.
.	.	.	8d	.
.	.	.	8fJ	.
!	!	!	!	!
2CC 2GG	2C) 2G	2B)	8eL	.
.	.	.	8g	.
.	.	.	8f	.
.	.	.	8aJ	.
=73	=73	=73	=73	=73
!	!	!	!	!
4CC	(4c	(4c	8cL	.
.	.	.	8e	.
2CC 2GG	4C) 4G	4B)	8d	.
.	.	.	8gJ	.
.	(4c	(4c	8cL	.
.	.	.	8e	.
[4CC [4GG	4C) 4G	4B)	8d	.
.	.	.	8gJ	.
=74	=74	=74	=74	=74
4CC] 4GG]	(4c	(4c	8cL	.
.	.	.	8e	.
2CC 2GG	4C) 4G	4B)	8d	.
.	.	.	8gJ	.
.	(4c	(4c	8cL	.
.	.	.	8e	.
4CC 4GG	4C) 4G	4B)	8d	.
.	.	.	8gJ	.
=75	=75	=75	=75	=75
2CC	8CL	8cL	8cL	.
.	8E	8e	8e	.
.	8D	8d	8d	.
.	8FJ	8fJ	8fJ	.
4r	8EL	8eL	8eL	.
.	8G	8g	8g	.
8FL	8F	8f	8f	.
8AJ	8AJ	8aJ	8aJ	.
=76	=76	=76	=76	=76
8G#XL	8G#XL	8g#XL	8g#XL	.
8B	8B	8b	8b	.
8A	8A	8a	8a	.
8cJ	8cJ	8ccJ	8ccJ	.
8BL	8BL	8bL	8bL	.
8d	8d	8dd	8dd	.
8c	8c	8cc	8cc	.
8eJ	8eJ	8eeJ	8eeJ	.
=77	=77	=77	=77	=77
!!linebreak:original
2.A	2.c	2.ee	2.ff#X	.
4A	8dL	8ddL	4ff#	.
.	8eJ	8ccJ	.	.
=78	=78	=78	=78	=78
4G	4G 4e	4cc 4gg	4ccc	.
4r	4r	4r	4r	.
4G	4G 4e	4cc 4gg	4ccc	.
4r	4r	4r	4r	.
=79	=79	=79	=79	=79
4GG 4D 4B	4G 4f	4d 4b 4gg	4ggg	.
4r	4r	4r	4r	.
4GG 4D 4B	4G 4f	4d 4b 4gg	4ggg	.
4r	4r	4r	4r	.
=80	=80	=80	=80	=80
4CC 4GG 4E 4c	4C 4G 4e	4e 4cc 4gg	4g 4ee 4ccc	.
4r	4r	4r	4r	.
4EE	4e	4e 4b 4gg#X	4g#X 4ee 4bb	.
4r	4r	4r	4r	.
=81:|!	=81:|!	=81:|!	=81:|!	=81:|!
1f#X	1r	2r	1ff#X	.
.	.	[2ff#X	.	.
=82	=82	=82	=82	=82
[1B	1r	2ff#]	1bb	.
.	.	[2gg	.	.
=83	=83	=83	=83	=83
2B]	1a	2gg]	1dd#X 1bb	.
2BB	.	2ff#X	.	.
=84	=84	=84	=84	=84
4EE 4BB 4G	4E 4B 4g	4e 4b 4ee	4b 4gg 4eee	.
4r	4r	4r	4r	.
4EE	2r	2r	2r	.
4r	.	.	.	.
=85	=85	=85	=85	=85
1r	1r	2r	1cc#X	.
.	.	[2cc#X	.	.
=86	=86	=86	=86	=86
[1f#X	1r	2cc#]	1ff#X	.
.	.	[2dd	.	.
=87	=87	=87	=87	=87
2f#X]	1e	2dd]	1a#X 1ff#X	.
2F#X	.	2cc#X	.	.
=88	=88	=88	=88	=88
4BB	8BL	4b	4b 4bb	.
.	8d	.	.	.
!	!	!LO:TX:a:i:t=marcato	!	!
4r	8c#X	4r	4r	.
.	8eJ	.	.	.
2r	8dL	4b	2r	.
.	8f#X	.	.	.
.	8e	4r	.	.
.	8gJ	.	.	.
=89	=89	=89	=89	=89
1r	8F#XL	2.ff#X^	1r	.
.	8A#X	.	.	.
.	8G#X	.	.	.
.	8BJ	.	.	.
.	8A#L	.	.	.
.	8c#X	.	.	.
.	8B	4ff#'	.	.
.	8dJ	.	.	.
=90	=90	=90	=90	=90
!LO:TX:a:t=pizz.	!	!	!	!
4BB	8BL	4dd'	4bb	.
!	!	!	!	!
.	8d	.	.	.
4r	8c#X	4cc#X'	4r	.
.	8eJ	.	.	.
!	!	!	!LO:TX:b:i:t=marcato	!
2r	8dL	4b'	4bb	.
.	8f#X	.	.	.
.	8e	4b'	4r	.
.	8gJ	.	.	.
=91	=91	=91	=91	=91
!!linebreak:original
4FF#X	8F#XL	4a#X	2.fff#X^	.
.	8A#X	.	.	.
4r	8G#X	4g#X	.	.
.	8BJ	.	.	.
2r	8A#L	2f#X	.	.
.	8c#X	.	.	.
.	8B	.	4fff#'	.
.	8dJ	.	.	.
=92	=92	=92	=92	=92
!LO:TX:a:t=arco	!	!	!	!
8BL	4B	4b'	4ddd'	.
8d	.	.	.	.
8c#X	4r	4r	4ccc#X'	.
8eJ	.	.	.	.
8dL	2r	4b'	4bb'	.
8f#X	.	.	.	.
8e	.	4r	4bb'	.
8gJ	.	.	.	.
=93	=93	=93	=93	=93
!	!LO:TX:a:t=pizz.	!	!	!
8F#XL	4f#X	2.ff#X^	4aa#X'	.
8A#X	.	.	.	.
8G#X	4r	.	4gg#X'	.
8BJ	.	.	.	.
8A#L	2r	.	2ff#X	.
8c#X	.	.	.	.
8B	.	4ff#'	.	.
8dJ	.	.	.	.
=94	=94	=94	=94	=94
8BL	4B	4dd'	4bb	.
8d	.	.	.	.
!	!	!	!LO:TX:b:i:t=cresc.	!
8c#X	4r	4cc#X'	4r	.
8eJ	.	.	.	.
8dL	2r	4b'	4bb	.
8f#X	.	.	.	.
8d	.	4b'	4r	.
8f#J	.	.	.	.
=95	=95	=95	=95	=95
8EL	4e	4g#X'	2.eee^	.
8G#X	.	.	.	.
8F#X	4r	4f#X'	.	.
8AJ	.	.	.	.
8G#L	2r	2e	.	.
8B	.	.	.	.
8A	.	.	4eee'	.
8cnJ	.	.	.	.
=96	=96	=96	=96	=96
!	!LO:TX:a:t=arco	!	!	!
1r	4A	8aL	4ccc#X'	.
.	.	8cc	.	.
!	!LO:TX:b:i:t=marcato	!	!	!
.	4r	8b	4bb'	.
!	!	!LO:TX:b:i:t=cresc.	!	!
.	.	8ddJ	.	.
.	4A	8ccL	4aa'	.
.	.	8ee	.	.
.	4r	8dd	4aa'	.
.	.	8ffJ	.	.
=97	=97	=97	=97	=97
1r	2.e^	8eL	4gg#X'	.
.	.	8g#X	.	.
.	.	8f#X	4ff#X'	.
.	.	8aJ	.	.
.	.	8g#L	2ee	.
.	.	8b	.	.
!	!LO:TX:b:i:t=cresc.	!	!	!
.	4e'	8a	.	.
.	.	8ccJ	.	.
=98	=98	=98	=98	=98
1r	4c'	8aL	4aa	.
.	.	8cc	.	.
.	4B'	8b	4r	.
.	.	8ddJ	.	.
.	4A'	8ccL	4aa	.
.	.	8ee	.	.
.	4A'	8dd	4r	.
.	.	8ffJ	.	.
=99	=99	=99	=99	=99
!!linebreak:original
1r	4G#X	8eL	2.eee^	.
.	.	8g#X	.	.
.	4F#X	8f#X	.	.
.	.	8aJ	.	.
.	2E	8g#L	.	.
.	.	8b	.	.
.	.	8a	4eee'	.
.	.	8ccJ	.	.
=100	=100	=100	=100	=100
4AA	1r	8aL	4ccc'	.
.	.	8cc	.	.
!LO:TX:b:i:t=cresc.	!	!	!	!
!LO:TX:a:i:t=marcato	!	!	!	!
4r	.	8b	4bb'	.
.	.	8ddJ	.	.
4AA	.	8ccL	4aa'	.
.	.	8ee	.	.
4r	.	8dd	4aa'	.
.	.	8ffJ	.	.
=101	=101	=101	=101	=101
!	!LO:TX:b:i:t=cresc.	!	!	!
2.D	4d	8dL	4ff'	.
.	.	8f	.	.
.	4r	8e	4ee'	.
.	.	8gJ	.	.
.	4d	8fL	4dd'	.
.	.	8a	.	.
4D'	4r	8g	4r	.
.	.	8b-XJ	.	.
=102	=102	=102	=102	=102
4BB-X'	2.g	4g	8GL	.
.	.	.	8B-X	.
!	!	!LO:TX:b:i:t=cresc.	!	!
4AA'	.	4r	8A	.
.	.	.	8cJ	.
4GG'	.	4g	8B-L	.
.	.	.	8d	.
4GG'	4g'	4r	8c	.
.	.	.	8eJ	.
=103	=103	=103	=103	=103
8CL	4e'	2.cc	4cc	.
8E	.	.	.	.
!	!	!	!LO:TX:b:i:t=cresc.	!
8D	4d'	.	4r	.
8FJ	.	.	.	.
8EL	4c'	.	4cc	.
8G	.	.	.	.
8F	4c'	4cc	4r	.
8AJ	.	.	.	.
=104	=104	=104	=104	=104
4FF	8FL	4a'	2.ff	.
.	8A	.	.	.
!LO:TX:b:i:t=cresc.	!	!	!	!
4r	8G	4g'	.	.
.	8B-XJ	.	.	.
4FF	8AL	4f'	.	.
.	8c	.	.	.
4r	8B-	4f'	4ff'	.
.	8dJ	.	.	.
=105	=105	=105	=105	=105
2.BB-X	4B-X	8B-XL	4dd'	.
.	.	8d	.	.
!	!LO:TX:b:i:t=cresc.	!	!	!
.	4r	8c	4cc'	.
.	.	8eJ	.	.
.	4B-	8dL	4b-X'	.
.	.	8f	.	.
4BB-'	4r	8e	4b-'	.
.	.	8gJ	.	.
=106	=106	=106	=106	=106
4GG'	2.e	4e	8eL	.
.	.	.	8g	.
4FF'	.	4r	8f	.
.	.	.	8aJ	.
4EE'	.	4e	8gL	.
.	.	.	8b-X	.
4EE'	4e'	4r	8g#X	.
.	.	.	8bnJ	.
=107	=107	=107	=107	=107
8AAL	4c#X'	2.a	4a	.
8C#X	.	.	.	.
!	!	!	!LO:TX:b:i:t=cresc.	!
8BBn	4Bn'	.	4r	.
8DJ	.	.	.	.
8C#L	4A'	.	4a	.
8E	.	.	.	.
8D	4A'	4a	4r	.
8FJ	.	.	.	.
=108	=108	=108	=108	=108
!!linebreak:original
(1D	(8dL	8fL	(2dd'	.
.	8f	8f	.	.
.	8d	8e	.	.
.	8fJ	8eJ	.	.
.	8dL	8dL	2dd')	.
.	8f	8d	.	.
.	8d	8f	.	.
.	8fJ	8fJ	.	.
=109	=109	=109	=109	=109
1AA)	8c#XL	8aL	2.aa^	.
.	8e	8a	.	.
.	8c#	8e	.	.
.	8eJ	8eJ	.	.
.	8c#L	8c#XL	.	.
.	8e	8c#	.	.
.	8c#	8e	4aa'	.
.	8eJ)	8eJ	.	.
=110	=110	=110	=110	=110
(1D	(8dL	8aL	4ff'	.
.	8f	8a	.	.
.	8d	8f	4ee'	.
.	8fJ	8fJ	.	.
.	8dL	8dL	4dd'	.
.	8f	8d	.	.
.	8d	8f	4dd'	.
.	8fJ	8fJ	.	.
=111	=111	=111	=111	=111
1A)	8c#XL	8aL	4cc#X'	.
.	8e	8a	.	.
.	8c#	8e	4bn'	.
.	8eJ	8eJ	.	.
.	8c#L	8c#XL	2a	.
.	8e	8c#	.	.
.	8c#	8e	.	.
.	8eJ)	8eJ	.	.
=112	=112	=112	=112	=112
(1D 1A	8d'L	8f'L 8a	(2dd'	.
.	8d'	8f' 8a	.	.
.	8d'	8f' 8a	.	.
.	8d'J	8f'J 8a	.	.
.	8d'L	8f'L 8a	2dd')	.
.	8d'	8f' 8a	.	.
.	8d'	8f' 8a	.	.
.	8d'J	8f'J 8a	.	.
=113	=113	=113	=113	=113
1AA	8dL	8eL 8a	2.aa^	.
.	8d	8e 8a	.	.
.	8d	8e 8a	.	.
.	8dJ	8eJ 8a	.	.
.	8cnL	8eL 8a	.	.
.	8c	8e 8a	.	.
.	8c	8e 8a	4aa'	.
.	8cJ	8eJ 8a	.	.
=114	=114	=114	=114	=114
*	*	*	*^	*
1BB-X 1F	8cL	8dL 8f	4ffT	16ffyy	.
.	.	.	.	32gg-LLLyy	.
.	.	.	.	32ffyy	.
.	8c	8d 8f	.	32gg-yy	.
.	.	.	.	32ffyy	.
.	.	.	.	32gg-yy	.
.	.	.	.	32ffJJJyy	.
.	8c	8d 8f	4ee	2.ryy	.
.	8cJ	8dJ 8f	.	.	.
.	8B-XL	8dL 8f	4dd	.	.
.	8B-	8d 8f	.	.	.
.	8B-	8d 8f	4dd	.	.
.	8B-J	8dJ 8f	.	.	.
=115	=115	=115	=115	=115	=115
1FF)	8AL	8cL 8f	4ccT	16ccyy	.
.	.	.	.	32dd-LLLyy	.
.	.	.	.	32ccyy	.
.	8A	8c 8f	.	32dd-yy	.
.	.	.	.	32ccyy	.
.	.	.	.	32dd-yy	.
.	.	.	.	32ccJJJyy	.
.	8B-X	8c 8f	4b-X	2.ryy	.
.	8B-J	8cJ 8f	.	.	.
.	8cL	8cL 8f	2a	.	.
.	8c	8c 8f	.	.	.
.	8c	8c 8f	.	.	.
.	8cJ	8cJ 8f	.	.	.
*	*	*	*v	*v	*
=116	=116	=116	=116	=116
!!linebreak:original
(1GG 1D	8GL	8A#XL 8d	(2g'	.
.	8G	8A# 8d	.	.
.	8G	8A# 8d	.	.
.	8GJ	8A#J 8d	.	.
.	8GL	8A#L 8d	2g')	.
.	8G	8A# 8d	.	.
.	8G	8A# 8d	.	.
.	8GJ	8A#J 8d	.	.
=117	=117	=117	=117	=117
1DD	8GL	8AL 8d	2.dd	.
.	8G	8A 8d	.	.
.	8G	8A 8d	.	.
.	8GJ	8AJ 8d	.	.
.	8FL	8AL 8d	.	.
.	8F	8A 8d	.	.
.	8F	8A 8d	4dd'	.
.	8FJ	8AJ 8d	.	.
=118	=118	=118	=118	=118
1EE-X) 1BB-X	8FL 8G	8B-XL	4b-X	.
.	8F 8G	8B-	.	.
.	8F 8G	8B-	4a	.
.	8FJ 8G	8B-J	.	.
.	8E-XL 8G	8B-L	4g	.
.	8E- 8G	8B-	.	.
.	8E- 8G	8B-	4g	.
.	8E-J 8G	8B-J	.	.
=119	=119	=119	=119	=119
!LO:TX:b:i:t=cresc.	!	!	!	!
4BB-X	8D'L	8B-XL	4f	.
.	8D'	8B-	.	.
4r	8E-X'	8B-	4e-X	.
.	8E-'J	8B-J	.	.
4BB-	8FL	8B-L	2d	.
.	8F	8B-	.	.
4r	8F	8B-	.	.
.	8FJ	8B-J	.	.
=120	=120	=120	=120	=120
2.B-X	4d	4g#X	4d 4dd	.
.	4r	4r	4r	.
.	4d	4g#	4d 4dd	.
4B-	4r	4r	4r	.
=121	=121	=121	=121	=121
4A	4c#X	2.a	2.a 2.aa	.
4Bn	4d	.	.	.
4c#X	4e	.	.	.
4C#X	4e	4a	4a 4aa	.
=122	=122	=122	=122	=122
4D	4f	4a	4b 4ff	.
4E	4g	4g	4cc#X 4ee	.
4F	4a	4f	4dd	.
4GG#X	4B	4f	4dd	.
=123	=123	=123	=123	=123
4AA	4c#X	4e	4cc#X	.
4r	4d	4d 4g#X	4bn	.
4AA	2e	2c#X 2a	2a	.
4r	.	.	.	.
=124	=124	=124	=124	=124
4B-X	4d	4d 4g#X	4d 4dd	.
4r	4r	4r	4r	.
4B-	4d	4d 4g#	4d 4dd	.
4r	4r	4r	4r	.
=125	=125	=125	=125	=125
2.AA	2.A 2.e	2.c#X 2.a	2.a 2.aa	.
8AAL	8AL 8e	8cc#XL 8ee	8aL 8aa	.
8AAJ	8AJ 8e	8cc#J 8ee	8aJ 8aa	.
=126	=126	=126	=126	=126
!!linebreak:original
8DL	8AL 8f	8ddL	8aL 8ff	.
8D	8A 8f	8dd	8a 8ff	.
8E	8A 8e	8g	8cc#X 8ee	.
8EJ	8AJ 8e	8gJ	8cc#J 8ee	.
8FL	8AL 8d	8fL 8a	8ddL	.
8F	8A 8d	8f 8a	8dd	.
8G#X	8B 8d	8f 8b	8dd	.
8G#J	8BJ 8d	8fJ 8b	8ddJ	.
=127	=127	=127	=127	=127
4A	8c#XL	8eL 8a	8cc#XL	.
.	8c#	8e 8a	8cc#	.
4r	8d	8g#X	8b	.
.	8dJ	8g#J	8bJ	.
4A	2c#	2a	2a	.
4r	.	.	.	.
=128	=128	=128	=128	=128
2.D	8dL	4dd	[1d [1dd	.
.	8f#X	.	.	.
.	8e	4r	.	.
.	8gJ	.	.	.
.	8f#L	4dd	.	.
.	8a	.	.	.
4r	8g	4r	.	.
.	8a#XJ	.	.	.
=129	=129	=129	=129	=129
!LO:TX:a:t=pizz.	!	!	!	!
4d	8e-XL	2.gg^	1d_ 1dd_	.
.	8g	.	.	.
4r	8f	.	.	.
.	8aJ	.	.	.
4d	8gL	.	.	.
.	8b-X	.	.	.
4r	8a	4gg'	.	.
.	8ccJ	.	.	.
=130	=130	=130	=130	=130
4D	8cL	4ee-X	1d_ 1dd_	.
.	8e-X	.	.	.
4r	8d	4dd	.	.
.	8fJ	.	.	.
2r	8e-L	4cc	.	.
.	8g	.	.	.
.	8f	4cc	.	.
.	8aJ	.	.	.
=131	=131	=131	=131	=131
4d	8dL	4ff	1d_ 1dd_	.
.	8f	.	.	.
4r	8e-X	4r	.	.
.	8gJ	.	.	.
4d	8fL	4ff	.	.
.	8a	.	.	.
4r	8g	4r	.	.
.	8b-XJ	.	.	.
=132	=132	=132	=132	=132
4D	8B-XL	4b-X	1d_ 1dd_	.
.	8d	.	.	.
4r	8c	4r	.	.
.	8e-XJ	.	.	.
2r	8dL	4b-	.	.
.	8f	.	.	.
.	8e-	4r	.	.
.	8gJ	.	.	.
=133	=133	=133	=133	=133
4d	8cL	2.ee-X^	1d_ 1dd_	.
.	8e-X	.	.	.
4r	8d	.	.	.
.	8fJ	.	.	.
4d	8e-L	.	.	.
.	8g	.	.	.
4r	8f	4ee-'	.	.
.	8aJ	.	.	.
=134	=134	=134	=134	=134
4D	8AL	4cc	1d_ 1dd_	.
.	8c	.	.	.
4r	8B-X	4b-X	.	.
.	8dJ	.	.	.
2r	8cL	4a	.	.
.	8e-X	.	.	.
.	8c#X	4a	.	.
.	8enJ	.	.	.
=135	=135	=135	=135	=135
!!linebreak:original
4d	8dL	4dd	1d] 1dd]	.
.	8f#X	.	.	.
4r	8e	4r	.	.
.	8gJ	.	.	.
4d	8e#XL	4dd	.	.
.	8g#X	.	.	.
4r	8f#	4r	.	.
.	8aJ	.	.	.
=136	=136	=136	=136	=136
!LO:TX:a:t=arco	!	!	!	!
[1GG [1G	4gn	8gL	4gg	.
.	.	8b	.	.
.	4r	8a	4r	.
.	.	8ccJ	.	.
.	2r	8bL	4gg	.
.	.	8dd	.	.
.	.	8cc	4r	.
.	.	8ee-XJ	.	.
=137	=137	=137	=137	=137
1GG_ 1G_	4c	8a-XL	2.ccc^	.
.	.	8cc	.	.
.	4r	8b-X	.	.
.	.	8ddJ	.	.
.	4c	8ccL	.	.
.	.	8ee-X	.	.
.	4r	8dd	4ccc'	.
.	.	8ffJ	.	.
=138	=138	=138	=138	=138
1GG_ 1G_	2.f^	8fL	4aa-X	.
.	.	8a-X	.	.
.	.	8g	4gg	.
.	.	8b-XJ	.	.
.	.	8a-L	4ff	.
.	.	8cc	.	.
.	4f'	8b-	4ff	.
.	.	8ddJ	.	.
=139	=139	=139	=139	=139
1GG_ 1G_	4d	8gL	4bb-X	.
.	.	8b-X	.	.
.	4c	8a-X	4r	.
.	.	8ccJ	.	.
.	4B-X	8b-L	4bb-	.
.	.	8dd	.	.
.	4B-	8cc	4r	.
.	.	8ee-XJ	.	.
=140	=140	=140	=140	=140
1GG_ 1G_	4e-X	8e-XL	4ee-X	.
.	.	8g	.	.
.	4r	8f	4r	.
.	.	8a-XJ	.	.
.	4e-	8gL	4ee-	.
.	.	8b-X	.	.
.	4r	8a-	4r	.
.	.	8ccJ	.	.
=141	=141	=141	=141	=141
1GG_ 1G_	4A-X	8fL	2.aa-X^	.
.	.	8a-X	.	.
.	4r	8g	.	.
.	.	8b-XJ	.	.
.	4A-	8a-L	.	.
.	.	8cc	.	.
.	4r	8b-	4aa-'	.
.	.	8ddJ	.	.
=142	=142	=142	=142	=142
1GG_ 1G_	2.d^	8dL	4ff	.
.	.	8f	.	.
.	.	8e-X	4ee-X	.
.	.	8gJ	.	.
.	.	8fL	4dd	.
.	.	8a-X	.	.
.	4d'	8f#X	4dd	.
.	.	8anJ	.	.
=143	=143	=143	=143	=143
!!linebreak:original
1GG] 1G]	4B	8gL	4gg	.
.	.	8b	.	.
.	4A	8a	4r	.
.	.	8ccJ	.	.
.	4G	8bL	4gg	.
.	.	8dd	.	.
.	4G	8cc	4r	.
.	.	8ee-XJ	.	.
=144	=144	=144	=144	=144
1r	2e-X^	2a-X^	2a-X^ 2cc	.
.	2e-^	2a-^	2a-^ 2cc	.
=145	=145	=145	=145	=145
!	!	!	!	!
*	*	*	*^	*
2GG	2G 2d	2.g	2.b 2.gg	4G 4d	.
.	.	.	.	4rc	.
2GG	2G 2d	.	.	4rc	.
*	*	*	*v	*v	*
.	.	4g	4gg	.
=146	=146	=146	=146	=146
2.G	4c	4g	4ee-X	.
.	4G 4d	4g	4dd	.
.	4G 4e-X	4g	4cc	.
4F#X	4G 4e-	4an	4cc	.
=147	=147	=147	=147	=147
4G	4G 4d	4g	4b	.
4A	4c	4f#X	4a	.
4B	4d	4g	4g	.
4B	4d	4g	4g	.
=148	=148	=148	=148	=148
2c^	2C^ 2c	2e-X^	2a-X^ 2cc	.
2c^	2C^ 2c	2e-^	2a-^ 2cc	.
=149	=149	=149	=149	=149
!	!	!	!	!
*	*	*	*^	*
2.GG	2.G	2.G 2.d	2.b 2.gg	4G 4d	.
.	.	.	.	4rc	.
.	.	.	.	4rc	.
*	*	*	*v	*v	*
!	!	!	!	!
4GG	4G 4d	4G 4g	4gg	.
=150	=150	=150	=150	=150
4C	4G 4e-X	4G 4g	4ee-X	.
4D	4G 4f	4G 4g	4dd	.
4E-X	4G 4g	4G 4g	4cc	.
4F#X	4G 4e-	4G 4a	4cc	.
=151	=151	=151	=151	=151
4G	4G 4d	4G 4g	4b	.
4r	4c	4f#X	4a	.
4G	4B 4d	4g	4g	.
4r	4r	4r	4r	.
=152	=152	=152	=152	=152
(2En	2c	(2g	(2cc	.
2F	[2c	2a-X	2dd-X	.
=153	=153	=153	=153	=153
2A-X	2c]	2cc	2ff	.
2G)	[2c	2b-X)	2ee)	.
=154	=154	=154	=154	=154
(2G	2c]	(2b-X	(2ee	.
2A-X	[2c	2cc	2ff	.
=155	=155	=155	=155	=155
2c	2c]	2ee	2aa-X	.
2B-X)	2c	2dd-X)	2gg)	.
=156	=156	=156	=156	=156
2.FF 2.C	2r	2.f	8fL	.
.	.	.	8a	.
.	.	.	8g	.
.	.	.	8b-XJ	.
.	2C	.	8aL	.
.	.	.	8cc	.
!	!	!	!	!
[4FF [4C	.	8b-XL	8b-	.
.	.	8ddJ	8ddJ	.
=157	=157	=157	=157	=157
!!linebreak:original
!	!	!	!	!
1FF_ 1C_	2.B-X	8cL	8cL	.
.	.	8e	8e	.
.	.	8d	8d	.
.	.	8fJ	8fJ	.
.	.	8eL	8eL	.
.	.	8g	8g	.
.	4r	8f	8f	.
.	.	8aJ	8aJ	.
=158	=158	=158	=158	=158
2.FF] 2.C]	2r	8fL	8fL	.
!	!	!	!LO:TX:b:i:t=cresc.	!
.	.	8a	8a	.
.	.	8G	8g	.
.	.	8B-XJ	8b-XJ	.
!	!LO:TX:a:i:t=cresc.	!	!	!
.	2C	8AL	8aL	.
.	.	8c	8cc	.
!LO:TX:b:i:t=cresc.	!	!	!	!
[4FF [4C	.	8B-	8b-	.
.	.	8dJ	8ddJ	.
=159	=159	=159	=159	=159
1FF_ 1C_	2.B-X	8cL	8cL	.
.	.	8e	8e	.
.	.	8d	8d	.
.	.	8fJ	8fJ	.
.	.	8eL	8eL	.
.	.	8g	8g	.
.	4r	8f	8f	.
.	.	8aJ	8aJ	.
=160	=160	=160	=160	=160
2FF] 2C]	2r	8fL	8fL	.
.	.	8a	8a	.
.	.	8G	8g	.
.	.	8B-XJ	8b-XJ	.
4r	4r	8AL	8aL	.
.	.	8c	8cc	.
8BB-XL	8B-XL	8B-	8b-	.
8DJ	8dJ	8dJ	8ddJ	.
=161	=161	=161	=161	=161
8C#XL	8c#XL	8c#XL	8cc#XL	.
8E	8e	8e	8ee	.
8D	8d	8d	8dd	.
8FJ	8fJ	8fJ	8ffJ	.
8EL	8eL	8eL	8eeL	.
8G	8g	8g	8gg	.
8F	8f	8f	8ff	.
8AJ	8aJ	8aJ	8aaJ	.
=162	=162	=162	=162	=162
8DDL	8DL	8dL	8dL	.
8FF	8F	8f	8f	.
8EE	8E	8e	8e	.
8GGJ	8GJ	8gJ	8gJ	.
8FFL	8FL	8fL	8fL	.
8AA	8A	8a	8a	.
8GG	8G	8g	8g	.
8BB-XJ	8B-XJ	8b-XJ	8b-XJ	.
=163	=163	=163	=163	=163
8AAL	8AL	8aL	8aL	.
8C#X	8c#X	8cc#X	8cc#X	.
8BBn	8Bn	8b	8b	.
8DJ	8dJ	8ddJ	8ddJ	.
8C#L	8c#L	8cc#L	8cc#L	.
8E	8e	8ee	8ee	.
8D	8d	8dd	8dd	.
8FJ	8fJ	8ffJ	8ffJ	.
=164	=164	=164	=164	=164
!	!	!	!	!
[1BB-X	2r	1b-X	8b-XL	.
.	.	.	8dd	.
.	.	.	8cc	.
.	.	.	8ee-XJ	.
!	!LO:TX:a:i:t=marcato	!	!	!
.	(2F	.	8ddL	.
.	.	.	8ff	.
.	.	.	8ee-	.
.	.	.	8ggJ	.
=165	=165	=165	=165	=165
!!linebreak:original
1BB-]	2.e-X)	1f	8fL	.
.	.	.	8a	.
.	.	.	8g	.
.	.	.	8b-XJ	.
.	.	.	8aL	.
.	.	.	8cc	.
.	4r	.	8b-	.
.	.	.	8ddJ	.
=166	=166	=166	=166	=166
[1BB-X	2r	1b-X	8B-XL	.
.	.	.	8dd	.
.	.	.	8cc	.
.	.	.	8ee-XJ	.
.	(2F	.	8ddL	.
.	.	.	8ff	.
.	.	.	8ee-	.
.	.	.	8ggJ	.
=167	=167	=167	=167	=167
1BB-]	2.e-X)	1f	8fL	.
.	.	.	8a	.
.	.	.	8g	.
.	.	.	8b-XJ	.
.	.	.	8aL	.
.	.	.	8cc	.
.	4r	.	8b-	.
.	.	.	8ddJ	.
=168	=168	=168	=168	=168
8BB-XL	1r	1r	1r	.
8D	.	.	.	.
8C	.	.	.	.
8E-XJ	.	.	.	.
8DL	.	.	.	.
8F	.	.	.	.
8E-	.	.	.	.
8GJ	.	.	.	.
=169	=169	=169	=169	=169
2.AA	8aL	(8gL	(8cc#XL	.
.	8a	8a	8a	.
.	8a	8g	8dd	.
.	8aJ	8aJ	8aJ	.
.	2a	8fL	8ffL	.
.	.	8a	8dd	.
4r	.	8f	8ff	.
.	.	8aJ)	8ddJ)	.
=170	=170	=170	=170	=170
8BB-XL	1r	1r	1r	.
8D	.	.	.	.
8C	.	.	.	.
8E-XJ	.	.	.	.
8DL	.	.	.	.
8F	.	.	.	.
8E-	.	.	.	.
8GJ	.	.	.	.
=171	=171	=171	=171	=171
2.AA	8aL	(8gL	(8cc#XL	.
.	8a	8a	8a	.
.	8a	8g	8dd	.
.	8aJ	8aJ	8aJ	.
.	2a	8fL	8ffL	.
.	.	8a	8dd	.
4r	.	8f	8ff	.
.	.	8aJ)	8ddJ)	.
=172	=172	=172	=172	=172
8B-XL	8GL	1r	1r	.
8d	8B-X	.	.	.
8c	8A	.	.	.
8e-XJ	8cJ	.	.	.
8dL	8B-L	.	.	.
8f	8d	.	.	.
8e-	8c	.	.	.
8gJ	8e-XJ	.	.	.
=173	=173	=173	=173	=173
!!linebreak:original
*clefG2	*	*	*	*
2.ddd	1r	(8ccL	(8ff#XL	.
.	.	8dd	8dd	.
.	.	8cc	8ff#	.
.	.	8ddJ	8ddJ	.
.	.	8a#XL	8bb-XL	.
.	.	8dd	8gg	.
4r	.	8a#	8bb-	.
.	.	8ddJ)	8ggJ)	.
*clefF4	*	*	*	*
=174	=174	=174	=174	=174
8GL	8GL	1r	1r	.
8B-X	8B-X	.	.	.
8A	8A	.	.	.
8cJ	8cJ	.	.	.
8B-L	8B-L	.	.	.
8d	8d	.	.	.
8c	8c	.	.	.
8e-XJ	8e-XJ	.	.	.
*clefG2	*	*	*	*
=175	=175	=175	=175	=175
2.ddd	1r	(8ccL	(8ff#XL	.
.	.	8dd	8dd	.
.	.	8cc	8ff#	.
.	.	8ddJ	8ddJ	.
.	.	8b-XL	8bb-XL	.
.	.	8dd	8gg	.
4r	.	8b-	8bb-	.
.	.	8ddJ)	8ggJ)	.
*clefF4	*clefG2	*	*	*
=176	=176	=176	=176	=176
[1C	4dd	8ggL	(8bb-XL	.
.	.	8bb-X	8ddd	.
.	4r	8gg	8bb-	.
.	.	8bb-J	8dddJ	.
.	4dd	8ggL	8bb-L	.
.	.	8bb-	8ddd	.
.	4r	8gg	8bb-	.
.	.	8bb-J	8dddJ	.
=177	=177	=177	=177	=177
1C^_	2.bb-X	8ggL	8bb-XL	.
.	.	8bb-X	8ddd	.
.	.	8gg	8bb-	.
.	.	8bb-J	8dddJ	.
.	.	8ggL	8bb-L	.
.	.	8bb-	8ddd	.
.	8aaL	8gg	8bb-	.
.	8ggJ	8bb-J	8dddJ)	.
=178	=178	=178	=178	=178
1C_	8ffL	8ggL	(8bb-XL	.
.	8ee	8bb-X	8ddd	.
.	8dd	8gg	8bb-	.
.	8ccJ	8bb-J	8dddJ	.
.	8b-XL	8ggL	8bb-L	.
.	8a	8bb-	8ddd	.
.	8g	8gg	8bb-	.
.	8fJ	8bb-J	8dddJ	.
=179	=179	=179	=179	=179
1C]	2e	8ggL	8bb-XL	.
.	.	8bb-X	8ddd	.
.	.	8gg	8bb-	.
.	.	8bb-J	8dddJ	.
.	2e	8ggL	8bb-L	.
.	.	8bb-	8ddd	.
.	.	8gg	8bb-	.
.	.	8bb-J	8dddJ)	.
=180	=180	=180	=180	=180
!	!	!LO:TX:b:i:t=cresc.	!LO:TX:b:i:t=cresc.	!
[1BBn	4e	(8gg#XL	(8bbnL	.
.	.	8bbn	8ddd	.
.	4r	8gg#	8bb	.
.	.	8bbJ	8dddJ	.
.	4e	8gg#L	8bbL	.
.	.	8bb	8ddd	.
.	4r	8gg#	8bb	.
.	.	8bbJ	8dddJ	.
=181	=181	=181	=181	=181
!!linebreak:original
1BB_	2.dd	8gg#XL	8bbL	.
.	.	8bb	8ddd	.
.	.	8gg#	8bb	.
.	.	8bbJ	8dddJ	.
.	.	8gg#L	8bbL	.
.	.	8bb	8ddd	.
.	8ccL	8gg#	8bb	.
.	8bJ	8bbJ)	8dddJ)	.
*	*clefC3	*	*	*
=182	=182	=182	=182	=182
(1BB]	8aL	(8gg#XL	(8bbL	.
.	8g#X	8bb	8ddd	.
.	8f	8gg#	8bb	.
.	8eJ	8bbJ	8dddJ	.
.	8dL	8gg#L	8bbL	.
.	8c	8bb	8ddd	.
.	8B	8gg#	8bb	.
.	8AJ	8bbJ	8dddJ	.
=183	=183	=183	=183	=183
[1E)	2G#X	8gg#XL	8bbL	.
.	.	8bb	8ddd	.
.	.	8gg#	8bb	.
.	.	8bbJ	8dddJ	.
.	2G#	8gg#L	8bbL	.
.	.	8bb	8ddd	.
.	.	8gg#	8bb	.
.	.	8bbJ)	8dddJ)	.
=184	=184	=184	=184	=184
1E_	(8gnL	(8b-XL	4ddd	.
.	8b-X	8dd	.	.
.	8g	8b-	4r	.
.	8b-J	8ddJ	.	.
.	8gL	8b-L	4ddd	.
.	8b-	8dd	.	.
.	8g	8b-	4r	.
.	8b-J	8ddJ	.	.
=185	=185	=185	=185	=185
1E_	8gnL	8b-XL	2.bbb-X	.
.	8b-X	8dd	.	.
.	8g	8b-	.	.
.	8b-J	8ddJ	.	.
.	8gL	8b-L	.	.
.	8b-	8dd	.	.
.	8g	8b-	8aaaL	.
.	8b-J)	8ddJ)	8gggJ	.
=186	=186	=186	=186	=186
1E_	(8gnL	(8b-XL	8fffL	.
.	8b-X	8dd	8eee	.
.	8g	8b-	8ddd	.
.	8b-J	8ddJ	8cccJ	.
.	8gL	8b-L	8bb-XL	.
.	8b-	8dd	8aa	.
.	8g	8b-	8gg	.
.	8b-J	8ddJ	8ffJ	.
=187	=187	=187	=187	=187
1E]	8gnL	8b-XL	2ee	.
.	8b-X	8dd	.	.
.	8g	8b-	.	.
.	8b-J	8ddJ	.	.
.	8gL	8b-L	2ee	.
.	8b-	8dd	.	.
.	8g	8b-	.	.
.	8b-J)	8ddJ)	.	.
=188	=188	=188	=188	=188
[1AA	(8gL	4ee	(8aL	.
.	8a	.	8cc	.
.	8g	4r	8a	.
.	8aJ	.	8ccJ	.
.	8gL	4ee	8aL	.
.	8a	.	8cc	.
.	8g	4r	8a	.
.	8aJ	.	8ccJ	.
=189	=189	=189	=189	=189
!!linebreak:original
1AA_	8gL	2.ccc^	8aL	.
.	8a	.	8cc	.
.	8g	.	8a	.
.	8aJ	.	8ccJ	.
.	8gL	.	8aL	.
.	8a	.	8cc	.
.	8g	8bbnL	8a	.
.	8aJ)	8aaJ	8ccJ)	.
=190	=190	=190	=190	=190
1AA]	(8gL	8ggL	(8aL	.
.	8a	8ff	8cc	.
.	8g	8ee	8a	.
.	8aJ	8ddJ	8ccJ	.
.	8gL	8ccL	8aL	.
.	8a	8b	8cc	.
.	8g	8a	8a	.
.	8aJ	8gJ	8ccJ	.
=191	=191	=191	=191	=191
1D	8fL	2f	8aL	.
.	8a	.	8cc	.
.	8f	.	8a	.
.	8aJ	.	8ccJ	.
.	8fL	2f	8aL	.
.	8a	.	8cc	.
.	8f	.	8a	.
.	8aJ)	.	8ccJ)	.
=192	=192	=192	=192	=192
!LO:TX:b:i:t=cresc.	!	!	!	!
1GG	(8fL	(8aL	4dd	.
.	8a	8b-X	.	.
.	8f	8a	4r	.
.	8aJ	8b-J	.	.
.	8fL	8aL	4dd	.
.	8a	8b-	.	.
.	8f	8a	4r	.
.	8aJ	8b-J	.	.
=193	=193	=193	=193	=193
4GG'	8eL	8gL	2.bb-X^	.
.	8g	8b-X	.	.
4r	8e	8g	.	.
.	8gJ	8b-J	.	.
4GG'	8dL	8fL	.	.
.	8f	8b-	.	.
4r	8d	8f	8aaL	.
.	8fJ)	8b-J)	8ggJ	.
=194	=194	=194	=194	=194
2.C^	(8eL	(8gL	8ffL	.
!	!LO:TX:b:i:t=cresc.	!LO:TX:b:i:t=cresc.	!LO:TX:b:i:t=cresc.	!
.	8g	8b-X	8ee	.
.	8e	8g	8dd	.
.	8gJ	8b-J	8ccJ	.
.	8eL	8gL	8b-XL	.
.	8g	8b-	8a	.
!LO:TX:b:i:t=cresc.	!	!	!	!
8B-XL	8e	8g	8g	.
8AJ	8gJ	8b-J	8fJ	.
=195	=195	=195	=195	=195
8GL	8eL	8gL	8eL	.
8F	8g	8b-X	8f	.
8E	8e	8g	8g	.
8DJ	8gJ	8b-J	8aJ	.
8CL	8eL	8gL	8b-XL	.
8BB-X	8g	8b-	8cc	.
8AA	8e	8g	8dd	.
8GGJ	8gJ)	8b-J)	8eeJ	.
=196	=196	=196	=196	=196
1FF	2f	2ff	8ffL	.
.	.	.	8aa	ff
.	.	.	8gg	.
.	.	.	8bb-XJ	.
.	2f	2ff	8aaL	.
.	.	.	8ccc	.
.	.	.	8bb-	.
.	.	.	8dddJ	.
=197	=197	=197	=197	=197
!!linebreak:original
1FF 1C	2.c	2.cc	8ccL	.
.	.	.	8ee	.
.	.	.	8dd	.
.	.	.	8ffJ	.
.	.	.	8eeL	.
.	.	.	8gg	.
.	4c	4cc	8ff	.
.	.	.	8aaJ	.
=198	=198	=198	=198	=198
1FF	4A	4a	8fL	.
.	.	.	8a	.
.	4G	4g	8g	.
.	.	.	8b-XJ	.
.	4F	4f	8aL	.
.	.	.	8cc	.
.	4F	4f	8b-	.
.	.	.	8ddJ	.
=199	=199	=199	=199	=199
1FF 1C	4E	4e	8cL	.
.	.	.	8e	.
.	4D	4d	8d	.
.	.	.	8fJ	.
.	2C	2c	8eL	.
.	.	.	8g	.
.	.	.	8f	.
.	.	.	8aJ	.
=200	=200	=200	=200	=200
1FF	8fL	8fL	2fff	.
.	8a	8a	.	.
.	8g	8g	.	.
.	8b-XJ	8b-XJ	.	.
.	8aL	8aL	2fff	.
.	8cc	8cc	.	.
.	8b-	8b-	.	.
.	8ddJ	8ddJ	.	.
=201	=201	=201	=201	=201
1FF 1C	8cL	8cL	2.ccc	.
.	8e	8e	.	.
.	8d	8d	.	.
.	8fJ	8fJ	.	.
.	8eL	8eL	.	.
.	8g	8g	.	.
.	8f	8f	4ccc	.
.	8aJ	8aJ	.	.
=202	=202	=202	=202	=202
1FF	8FL	8fL	4aa	.
.	8A	8a	.	.
.	8G	8g	4gg	.
.	8B-XJ	8b-XJ	.	.
.	8AL	8aL	4ff	.
.	8c	8cc	.	.
.	8B-	8b-	4ff	.
.	8dJ	8ddJ	.	.
=203	=203	=203	=203	=203
1FF 1C	8CL	8cL	4ee	.
.	8E	8e	.	.
.	8D	8d	4dd	.
.	8FJ	8fJ	.	.
.	8EL	8eL	2cc	.
.	8G	8g	.	.
.	8F	8f	.	.
.	8AJ	8aJ	.	.
=204	=204	=204	=204	=204
2FF	(2f	(2f	8fL	.
.	.	.	8a	.
.	.	.	8g	.
.	.	.	8b-XJ	.
2FF 2C	2c)	2e)	8aL	.
.	.	.	8cc	.
.	.	.	8b-	.
.	.	.	8ddJ	.
=205	=205	=205	=205	=205
!!linebreak:original
2FF	(2f	(2f	8fL	.
.	.	.	8a	.
.	.	.	8g	.
.	.	.	8b-XJ	.
!	!	!	!	!
2FF 2C	2c)	2e)	8aL	.
.	.	.	8cc	.
.	.	.	8b-	.
.	.	.	8ddJ	.
=206	=206	=206	=206	=206
4FF	(4f	(4f	8fL	.
.	.	.	8a	.
2FF 2C	4c)	4e)	8g	.
.	.	.	8ccJ	.
.	(4f	(4f	8fL	.
.	.	.	8a	.
[4FF [4C	4c)	4e)	8g	.
.	.	.	8ccJ	.
=207	=207	=207	=207	=207
4FF] 4C]	(4f	(4f	8fL	.
.	.	.	8a	.
2FF 2C	4c)	4e)	8g	.
.	.	.	8ccJ	.
.	(4f	(4f	8fL	.
.	.	.	8a	.
4FF 4C	4c)	4e)	8g	.
.	.	.	8ccJ	.
=208	=208	=208	=208	=208
8FFL	8FL	8fL	8fL	.
8AA	8A	8a	8a	.
8GG	8G	8g	8g	.
8BB-XJ	8B-XJ	8b-XJ	8b-XJ	.
8AAL	8AL	8aL	8aL	.
8C	8c	8cc	8cc	.
8BB-	8B-	8b-	8b-	.
8DJ	8dJ	8ddJ	8ddJ	.
=209	=209	=209	=209	=209
8C#XL	8c#XL	8cc#XL	8cc#XL	.
8E	8e	8ee	8ee	.
8D	8d	8dd	8dd	.
8FJ	8fJ	8ffJ	8ff	.
8EL	8eL	8eeL	8gg	.
8G	8g	8gg	8ff	.
8F	8f	8ff	8aaJ	.
8AJ	8aJ	8aaJ	.	.
=210	=210	=210	=210	=210
.	.	.	4a 4aa	[
4F	4f	4dd#X	.	.
.	.	.	4r	.
4r	4r	4r	.	.
.	.	.	4a 4aa	.
4F	4f	4dd#	.	.
.	.	.	4r	.
4r	4r	4r	.	.
=211	=211	=211	=211	=211
.	.	.	2.eee	sf
2.E	2.e	2.ee 2.gg#X	.	.
.	.	.	4eee	.
4E	4e	4ee 4gg#	.	.
=212	=212	=212	=212	=212
.	.	.	4ccc	.
4A	4e	4ee 4aa	.	.
.	.	.	4bb	.
4B	4e	4ee 4gg#X	.	.
.	.	.	4aa	.
4c	4e	4ee 4aa	.	.
.	.	.	4aa	.
4D#X	4f#X	4cc	.	.
=213	=213	=213	=213	=213
.	.	.	4gg#X	.
2E	4g#X	4b	.	.
.	.	.	4ff#X	.
.	4a	4dd#X	.	.
.	.	.	2ee	.
2E	2g#	2b 2ee	.	.
=214	=214	=214	=214	=214
.	.	.	4a 4aa	.
4F	4a	4dd#X	.	.
.	.	.	4r	.
4r	4r	4r	.	.
.	.	.	4a 4aa	.
4F	4a	4dd#	.	.
.	.	.	4r	.
4r	4r	4r	.	.
=215	=215	=215	=215	=215
!!linebreak:original
.	.	.	2.eee	sf
!!linebreak:original
2.E	2.e	2.ee 2.gg#X	.	.
.	.	.	8eeeL	.
8EL	8eL	8eeL 8gg#	8eeeJ	.
8EJ	8eJ	8eeJ 8gg#	.	.
=216	=216	=216	=216	=216
.	.	.	8cccL	.
8AL	8eL	8eeL 8aa	8ccc	.
8A	8e	8ee 8aa	8bb	.
8B	8e	8ee 8gg#X	8bbJ	.
8BJ	8eJ	8eeJ 8gg#	8aaL	.
8cL	8eL	8eeL 8aa	8aa	.
8c	8e	8ee 8aa	8aa	.
8D#X	8f#X	8cc	8aaJ	.
8D#J	8f#J	8ccJ	.	.
=217	=217	=217	=217	=217
.	.	.	8gg#XL	.
8EL	8g#XL	8bL	8gg#	.
8E	8g#	8b	8ff#X	.
8e	8a	8dd#X	8ff#J	.
8eJ	8aJ	8dd#J	4ee	.
4E	4g#	4b 4ee	.	.
.	.	.	4r	.
4r	4r	4r	.	.
=218	=218	=218	=218	=218
.	.	.	4e 4cc 4aa	f
4AA	4c 4e 4a	4e 4a 4ee	.	.
!	!	!	!LO:TX:b:i:t=sempre	!
.	.	.	4r	.
!LO:TX:b:i:t=sempre	!LO:TX:b:i:t=sempre	!LO:TX:b:i:t=sempre	!	!
4r	4r	4r	.	.
.	.	.	4f 4dd 4aa	.
4A	4d 4f 4a	4d 4a 4ff	.	.
.	.	.	4r	.
4r	4r	4r	.	.
=219	=219	=219	=219	=219
.	.	.	2.a 2.eee	sf
*	*^	*^	*	*
2.AA	2.a	4c 4e	2.cc 2.ee	4a	.	.
.	.	4rB	.	4rd	.	.
.	.	4rB	.	4rd	.	.
.	.	.	.	.	8dddL	.
*	*v	*v	*	*	*	*
*	*	*v	*v	*	*
4r	8ffL	8gg#XL	8bbJ	.
.	8ffJ	8gg#J	.	.
=220	=220	=220	=220	=220
.	.	.	8cccL	.
4r	8ee	8aa	8aa	.
.	8r	8r	8gg#X	.
8EL	8ddL	8ffL	8bbJ	.
8EJ	8ddJ	8ffJ	8aaL	.
8A	8cc	8ee	8ee	.
8r	8r	8r	8dd	.
8eL	8g#XL	8bL	8ffJ	.
8eJ	8g#J	8bJ	.	.
=221	=221	=221	=221	=221
.	.	.	(8qqff/	.
.	.	.	8eeL)	.
.	.	(8qqdd/	.	.
2.a	2.a	8ccL)	8ddJ	.
.	.	8bJ	8eeL	.
.	.	8ccL	8ffJ	.
.	.	8ddJ	2ee	.
.	.	2cc	.	.
4r	4r	.	.	.
=222	=222	=222	=222	=222
.	.	.	4b	f
4B	4B 4e	4g#X 4b	.	.
.	.	.	4r	.
4r	4r	4r	.	.
.	.	.	4b	.
4BB	4B 4f#X	4a	.	.
.	.	.	4r	f
4r	4r	4r	.	.
=223	=223	=223	=223	=223
.	.	.	2.gg#X	sf
2.E	2.B 2.e	2.g#X 2.b	.	.
.	.	.	8ff#XL	.
4r	8aL	8ccL	8dd#XJ	.
.	8aJ	8ccJ	.	.
=224	=224	=224	=224	=224
.	.	.	8eeL	.
4r	8g#X	8b	8b	.
.	8r	8r	8a	.
8BBL	8d#XL	8f#XL	8ccJ	.
8BBJ	8d#J	8f#J	8bL	.
8E	8g#	8g#X	8g#X	.
8r	8r	8r	8f#X	.
8BL	8d#L	8d#XL	8aJ	.
8BJ	8d#J	8d#J	.	.
=225	=225	=225	=225	=225
!!linebreak:original
.	.	.	8g#X	.
!!linebreak:original
8e	8B	8e	(8eL	.
8r	8r	8r	8d#X	.
4r	4r	4r	8eJ	.
.	.	.	8d#L	.
2r	2r	2r	8e	.
.	.	.	8f#X	.
.	.	.	8g#J)	.
=226	=226	=226	=226	=226
.	.	.	4a	.
4AA	4c' 4e	(4.e	.	.
.	.	.	4r	.
!LO:TX:a:t=pizz.	!	!	!	!
4r	4r	.	.	.
!	!	!	!LO:TX:a:t=pizz.	!
.	.	16f#XLL	4dn 4fn 4an	.
.	.	16g#XJJ)	.	.
4A	4d' 4f	4a'	.	.
.	.	.	4r	.
4r	4r	4cc'	.	.
=227	=227	=227	=227	=227
!	!	!	!LO:TX:a:t=arco	!
.	.	.	(4.ee	.
4AA	4c' 4e 4a	(8eeL	.	.
.	.	8ccJ)	.	.
4r	4r	2a	16ff#XLL	.
.	.	.	16gg#XJJ)	.
.	.	.	4aa'	.
2r	4d' 4f 4a	.	.	.
.	.	.	4ccc'	.
.	4r	4a	.	.
=228	=228	=228	=228	=228
.	.	.	(8eeeL	.
!LO:TX:a:t=arco	!	!	!	!
4AA	4c 4e 4a	4cc	8cccJ)	.
.	.	.	(2gg	sf
2BB	2e	2dd	.	.
.	.	.	4gg#X)	.
4BB'	4e'	4dd'	.	.
=229	=229	=229	=229	=229
.	.	.	(8aaL	.
4C	4e	4a	8ffJ)	.
.	.	.	(2dd#X	sf
2C#X	2g	2b-X	.	.
.	.	.	4ee)	.
4C#'	4g'	4b-'	.	.
=230	=230	=230	=230	=230
.	.	.	(8ffL	.
2D	2f	2b-X	8dd)	.
.	.	.	8b-X	.
.	.	.	8ddJ	.
.	.	.	8fL	.
4r	4r	4r	8b-	.
.	.	.	8d	.
4D'	4f'	4b-'	8fJ	.
=231	=231	=231	=231	=231
.	.	.	8eL	.
4r	4r	4r	8g#X	.
.	.	.	8bn	.
4E	4d	4g#X	8eeJ	.
.	.	.	8aL	.
4r	4r	4r	8cc	.
.	.	.	8ee	.
4AA	4c 4e	4a	8aaJ	.
=232	=232	=232	=232	=232
.	.	.	(8ggL	.
2D	2f	2b-X	8ff)	.
.	.	.	8dd	.
.	.	.	8ffJ	.
.	.	.	8b-XL	.
4r	4r	4r	8dd	.
.	.	.	8f	.
4D'	4f'	4b-'	8b-J	.
=233	=233	=233	=233	=233
.	.	.	8eL	.
4r	4r	4r	8g#X	.
.	.	.	8bn	.
4E	4d	4g#X	8eeJ	.
.	.	.	8aL	.
4r	4r	4r	8cc	.
.	.	.	8ee	.
4AA	4c 4e	4a	8aaJ	.
=234	=234	=234	=234	=234
!!linebreak:original
.	.	.	8gg	.
!!linebreak:original
4B	4d	4g 4dd	(8GL	.
.	.	.	8g	.
4r	4r	4r	8GJ)	.
.	.	.	8g	.
4c	4e	4g 4ee	(8gL	.
.	.	.	8gg	.
4r	4r	4r	8gJ)	.
=235	=235	=235	=235	=235
.	.	.	2.ggg	[
*	*	*^	*	*
2.d	2.f	2.g 2.ff	4G	.	.
.	.	.	4rA	.	.
.	.	.	4rA	.	.
.	.	.	.	8fffL	sf
*	*	*v	*v	*	*
8BL	8dL	8gL	8dddJ	.
8BJ	8dJ	8gJ	.	.
=236	=236	=236	=236	=236
.	.	.	8eeeL	.
8c	8e	8g	8ccc	.
8r	8r	8r	8bb	.
8dL	8fL	8bL	8dddJ	.
8dJ	8fJ	8bJ	8cccL	.
8e	8g	8cc	8gg	.
8r	8r	8r	8bb	.
8eL	8ccL	8ccL	8ggJ	.
8eJ	8ccJ	8ccJ	.	.
=237	=237	=237	=237	=237
.	.	.	8aaL	.
4f	4cc	4cc	8ff	.
.	.	.	8gg	.
4g	4cc	4cc	8eeJ	.
.	.	.	8ffL	.
4a	4cc	4cc	8cc	.
.	.	.	8ee	.
4g	4cc	4cc	8ccJ	.
=238	=238	=238	=238	=238
.	.	.	2dd	.
2f#X	2a	2cc	.	.
.	.	.	2dd	.
2f#	2a	2cc	.	.
=239	=239	=239	=239	=239
.	.	.	2g	.
2GG	2F	2B	.	.
.	.	.	2g	.
2GG	2F	2B	.	.
=240	=240	=240	=240	=240
.	.	.	2dd 2ee	.
2G#X	2e	2dd	.	.
.	.	.	2dd 2ee	.
2G#	2e	2dd	.	.
=241	=241	=241	=241	=241
.	.	.	2cc	.
2AA	2F 2c	2e-X	.	.
.	.	.	2f	f
2BB-X	2F	2d	.	.
=242	=242	=242	=242	=242
.	.	.	2dd	.
2BBn	2G 2d	2f	.	.
.	.	.	2g	.
2C	2G	2en	.	.
=243	=243	=243	=243	=243
.	.	.	2ee	f
2C#X	2A 2e	2g	.	.
.	.	.	2a	.
2D	2A	2f	.	.
=244	=244	=244	=244	=244
.	.	.	2ff	f
2BB-X	2B-X	2f 2dd	.	.
.	.	.	2b-X	.
2D	2d	2f 2b-X	.	.
=245	=245	=245	=245	=245
.	.	.	2cc 2ee	f
2EE	2E	2e 2a	.	.
.	.	.	2g#X 2b 2ee	.
2E	2e	2e 2bn	.	.
=246	=246	=246	=246	=246
!!linebreak:original
.	.	.	2a 2aa	f
!!linebreak:original
2AA	8AL	2a	.	.
.	8c	.	.	.
.	8B	.	.	.
.	8dJ	.	2a 2aa	.
2r	8cL	2r	.	.
.	8e	.	.	.
.	8d	.	.	.
.	8fJ	.	.	.
=247	=247	=247	=247	=247
.	.	.	2.eee	sf
2EE	8EL	1r	.	.
.	8G#X	.	.	.
.	8F#X	.	.	.
.	8AJ	.	.	.
2EE	8G#L	.	.	.
.	8B	.	4eee	.
.	8A	.	.	.
.	8cJ	.	.	.
=248	=248	=248	=248	=248
.	.	.	4ccc	.
2.AA	8AL	2a 2aa	.	.
.	8c	.	4bb	.
.	8B	.	.	.
.	8dJ	.	4aa	.
.	8cL	2a 2aa	.	.
.	8e	.	4aa	.
4AA	8d	.	.	.
.	8fJ	.	.	.
=249	=249	=249	=249	=249
.	.	.	4gg#X	.
4EE	8EL	2.eee	.	.
.	8G#X	.	4ff#X	.
4FF#X	8F#X	.	.	.
.	8AJ	.	2ee	.
4GG#X	8G#L	.	.	.
.	8B	.	.	.
4EE	8A	4eee	.	.
.	8cJ	.	.	.
=250	=250	=250	=250	=250
.	.	.	2a 2aa	.
4AA	8AL	4ccc	.	.
.	8c	.	.	.
4BB	8B	4bb	.	.
.	8dJ	.	2a 2aa	.
4C	8cL	4aa	.	.
.	8e	.	.	.
4D	8d	4aa	.	.
.	8fJ	.	.	.
=251	=251	=251	=251	=251
.	.	.	2.eee	sf
2E	8EL	4gg#X	.	.
.	8G#X	.	.	.
.	8F#X	4ff#X	.	.
.	8AJ	.	.	.
2E	8G#L	2ee	.	.
.	8B	.	4eee	.
.	8A	.	.	.
.	8cJ	.	.	.
=252	=252	=252	=252	=252
.	.	.	4ccc	.
2.AA	8AL	2a 2aa	.	.
.	8c	.	4bb	.
.	8B	.	.	.
.	8dJ	.	4aa	.
.	8cL	2a 2aa	.	.
.	8e	.	4aa	.
!	!	!	!	!
4AA	8d	.	.	.
.	8fJ	.	.	.
=253	=253	=253	=253	=253
.	.	.	4gg#X	.
4EE	8EL	2.eee	.	.
.	8G#X	.	4ff#X	.
4FF#X	8F#X	.	.	.
.	8AJ	.	2ee	.
4GG#X	8G#L	.	.	.
.	8B	.	.	.
4EE	8G#	4eee	.	.
.	8BJ	.	.	.
=254	=254	=254	=254	=254
!!linebreak:original
.	.	.	4a 4aa	.
!!linebreak:original
4AA	(8AL	4ccc	.	.
.	8c	.	4r	.
4C	8A	4aa	.	.
.	8cJ)	.	4ee 4eee	.
4E	(8AL	4gg#X	.	.
.	8B	.	4r	.
4EE	8A	4bb	.	.
.	8BJ)	.	.	.
=255	=255	=255	=255	=255
.	.	.	4cc 4aa	.
4AA	(8AL	4aa	.	.
.	8c	.	4r	.
4r	8A	4ee	.	.
.	8cJ)	.	4b 4ee	.
4E	(8AL	4b	.	.
.	8B	.	4r	.
4r	8A	4ee	.	.
.	8BJ)	.	.	.
=256	=256	=256	=256	=256
.	.	.	4cc 4aa	.
4AA	(8AL	4ccc	.	.
.	8c	.	4r	.
4C	8A	4aa	.	.
.	8cJ)	.	4ee 4eee	.
4E	(8AL	4gg#X	.	.
.	8B	.	4r	.
4EE	8A	4bb	.	.
.	8BJ)	.	.	.
=257	=257	=257	=257	=257
.	.	.	4cc 4aa	.
4AA	(8AL	4aa	.	.
.	8c	.	4r	.
4C	8A	4ee	.	.
.	8cJ)	.	4g#X 4b 4ee	.
4E	(8AL	4b	.	.
.	8B	.	4r	.
4EE	8A	4ee	.	.
.	8BJ)	.	.	.
=258||	=258||	=258||	=258||	=258||
*	*	*	*k[f#c#g#]	*
*	*	*	*A:	*
*	*	*	*M2/2	*
*	*	*	*met(c|)	*
!	!	!	!LO:TX:a:t=Moderato	!
.	.	.	[1a [1aa	.
*k[f#c#g#]	*k[f#c#g#]	*k[f#c#g#]	*	*
*A:	*A:	*A:	*	*
*M2/2	*M2/2	*M2/2	*	*
*met(c|)	*met(c|)	*met(c|)	*	*
[1AA	2A	2r	.	.
.	(4A	(4a	.	.
.	4c#	4cc#	.	.
=259	=259	=259	=259	=259
.	.	.	1a_ 1aa_	.
1AA_	4B	4b	.	.
.	4d	4dd	.	.
.	8c#L	8cc#L	.	.
.	8e	8ee	.	.
.	8f#	8ff#	.	.
.	8dJ	8ddJ	.	.
=260	=260	=260	=260	=260
.	.	.	1a_ 1aa_	.
1AA_	8c#L	8cc#L	.	.
.	8e	8ee	.	.
.	8d	8dd	.	.
.	8BJ	8bJ	.	.
.	4A	4a	.	.
.	4E	4e	.	.
=261	=261	=261	=261	=261
.	.	.	1a_ 1aa_	.
1AA_	4F#	4f#	.	.
.	4G#	4g#	.	.
.	4A	4a	.	.
.	4E	4e	.	.
=262	=262	=262	=262	=262
.	.	.	1a;_ 1aa_	.
1AA;_	4F#	4f#	.	.
.	4D)	4d)	.	.
.	2E; [2A	2c#; [2a	.	.
=263	=263	=263	=263	=263
*	*	*	*^	*
!!linebreak:original
.	.	.	1a_	(2aa]	.
!!linebreak:original
1AA_	1A_	2a]	.	.	.
.	.	.	.	4aa	.
.	.	(4a	.	.	.
.	.	.	.	4ccc#	.
.	.	4cc#	.	.	.
=264	=264	=264	=264	=264	=264
.	.	.	1a_	4bb	.
1AA_	1A_	4b	.	.	.
.	.	.	.	4ddd	.
.	.	4dd	.	.	.
.	.	.	.	8ccc#L	.
.	.	8cc#L	.	8eee	.
.	.	8ee	.	8fff#	.
.	.	8ff#	.	8dddJ	.
*	*	*	*v	*v	*
.	.	8ddJ	.	.
=265	=265	=265	=265	=265
*	*	*	*^	*
.	.	.	1a_	8ccc#L	.
1AA_	1A_	8cc#L	.	8eee	.
.	.	8ee	.	8ddd	.
.	.	8dd	.	8bbJ	.
.	.	8bJ	.	4aa	.
.	.	4a	.	.	.
.	.	.	.	4ee	.
.	.	4e	.	.	.
=266	=266	=266	=266	=266	=266
.	.	.	1a_	4ff#	.
1AA_	1A_	4f#	.	.	.
.	.	.	.	4gg#	.
.	.	4g#	.	.	.
.	.	.	.	4aa	.
.	.	4a	.	.	.
.	.	.	.	4ee	.
.	.	4e	.	.	.
*	*	*	*v	*v	*
=267	=267	=267	=267	=267
.	.	.	4a] 4ff#	.
1AA;]	1A;]	4f#	.	.
.	.	.	4dd)	.
.	.	4d)	.	.
.	.	.	2cc#; [2aa	.
.	.	2e; 2a	.	.
=268||	=268||	=268||	=268||	=268||
.	.	.	(1aa]	.
(1f#	(1a	(1cc#	.	.
=269	=269	=269	=269	=269
.	.	.	1eee	.
1c#	1g#	1ee	.	.
=270	=270	=270	=270	=270
.	.	.	1ff#	.
1d	1f#	1a	.	.
=271	=271	=271	=271	=271
.	.	.	1ccc#)	.
1A)	1e)	1cc#	.	.
=272	=272	=272	=272	=272
.	.	.	(1dd	.
(1B	(1d	1f#	.	.
=273	=273	=273	=273	=273
.	.	.	1aa	.
1F#	1c#	[1a	.	.
=274	=274	=274	=274	=274
.	.	.	1b	.
1D#X	1f#	1a]	.	.
=275	=275	=275	=275	=275
.	.	.	1dd)	.
1E)	1B)	1g#)	.	.
=276	=276	=276	=276	=276
.	.	.	(1cc#	.
(1F#	(1A	(1a	.	.
=277	=277	=277	=277	=277
.	.	.	1ee	.
1C#	1G#	1e	.	.
=278	=278	=278	=278	=278
.	.	.	1a	.
1D	1F#	1d	.	.
=279	=279	=279	=279	=279
.	.	.	1cc#	.
1AA	1E	1c#	.	.
=280	=280	=280	=280	=280
!!linebreak:original
.	.	.	1f#	.
!!linebreak:original
1BB	1D	1B)	.	.
=281	=281	=281	=281	=281
.	.	.	1a)	.
1FF#)	1C#)	[1A	.	.
=282	=282	=282	=282	=282
.	.	.	[1B	.
[1DD#X	[1F#	1A_	.	.
=283	=283	=283	=283	=283
.	.	.	(2B]	.
(2DD#X]	(2F#]	(2A]	.	.
.	.	.	2a	sf
2EE)	2Gn)	2cn)	.	.
=284	=284	=284	=284	=284
.	.	.	[1B	.
[1DD#X	[1F#	[1A	.	.
=285	=285	=285	=285	=285
.	.	.	2B]	p
(2DD#X]	(2F#]	(2A]	.	.
.	.	.	2a	sf
2EE)	2Gn)	2cn)	.	.
=286	=286	=286	=286	=286
.	.	.	[1B)	p
[1DD#X	[1F#	[1A	.	.
=287	=287	=287	=287	=287
.	.	.	1B_	.
1DD#X]	1F#]	1A_	.	.
=288	=288	=288	=288	=288
!	!	!	!	!LO:DY:a
.	.	.	1B_	<
[1DDn	[1Fn	1A_	.	.
=289	=289	=289	=289	=289
.	.	.	1B]	.
1DD_	1F]	1A]	.	.
.	.	.	8qqd/L	.
.	.	.	8qqa/J	.
=290||	=290||	=290||	=290||	=290||
!	!	!	!LO:TX:a:t=Tempo I.	!
.	.	.	(8ffnL	[
*	*clefG2	*	*	*
1DD_	4b	(8ddL	8aa	.
.	.	8ffn	8ff#X	.
.	4r	8dd	8aaJ	.
.	.	8ffJ	8ff#L	.
.	4b	8ddL	8aa	.
.	.	8ff	8ff#	.
.	4r	8dd	8aaJ	.
.	.	8ffJ	.	.
=291	=291	=291	=291	=291
.	.	.	8ffnL	pp
1DD_	2.ffn^	8ddL	8aa	.
.	.	8ffn	8ff#X	.
.	.	8dd	8aaJ	.
.	.	8ffJ	8ff#L	.
.	.	8ddL	8aa	.
.	.	8ff	8ff#	.
.	8eeL	8dd	8aaJ)	.
.	8ddJ	8ffJ)	.	.
=292	=292	=292	=292	=292
!	!	!	!LO:TX:b:i:t=cresc.	!
.	.	.	(8ffnL	.
!	!	!LO:TX:b:i:t=cresc.	!	!
1DD_	8ccnL	(8ddL	8aa	.
!	!LO:TX:b:i:t=cresc.	!	!	!
.	8b	8ffn	8ff#X	.
.	8a	8dd	8aaJ	.
.	8gnJ	8ffJ	8ff#L	.
.	8fnL	8ddL	8aa	.
.	8e	8ff	8ff#	.
.	8d	8dd	8aaJ	.
.	8cnJ	8ffJ	.	.
=293	=293	=293	=293	=293
!LO:TX:b:i:t=cresc.	!	!	!	!
.	.	.	8ffnL	.
1DD]	2B	8ddL	8aa	.
.	.	8ffn	8ff#X	.
.	.	8dd	8aaJ	.
.	.	8ffJ	8ff#L	.
.	2B	8ddL	8aa	.
.	.	8ff	8ff#	.
.	.	8dd	8aaJ)	.
.	.	8ffJ)	.	.
=294	=294	=294	=294	=294
*	*	*	*^	*
!!linebreak:original
.	.	.	(8ff#L	[1a	.
!!linebreak:original
(6DD#X	4b	(8bL	8aa	.	.
.	.	8ff#X	8ff#	.	.
6BB	.	.	.	.	.
.	4r	8b	8aaJ	.	.
6DD#	.	.	.	.	.
.	.	8ff#J	8ff#L	.	.
6BB	4b	8bL	8aa	.	.
.	.	8ff#	8ff#	.	.
6DD#	.	.	.	.	.
.	4r	8b	8aaJ	.	.
6BB)	.	.	.	.	.
*	*	*	*v	*v	*
.	.	8ff#J	.	.
=295	=295	=295	=295	=295
*	*	*	*^	*
.	.	.	8ff#L	1a_	.
(6DD#X	2.ff#X	8bL	8aa	.	.
.	.	8ff#	8ff#	.	.
6BB	.	.	.	.	.
.	.	8b	8aaJ	.	.
6DD#	.	.	.	.	.
.	.	8ff#J	8ff#L	.	.
6BB	.	8bL	8aa	.	.
.	.	8ff#	8ff#	.	.
6DD#	.	.	.	.	.
.	8eeL	8b	8aaJ	.	.
6BB)	.	.	.	.	.
*	*	*	*v	*v	*
.	8dd#XJ	8ff#J)	.	.
=296	=296	=296	=296	=296
*	*	*	*^	*
.	.	.	8ff#L	2a]	.
*	*clefC3	*	*	*	*
(6DD#X	8cc#XL	(8bL	8aa	.	.
.	8b	8ff#	8ff#	.	.
6BB	.	.	.	.	.
.	8a	8b	8aaJ)	.	.
6DD#	.	.	.	.	.
.	8g#J	8ff#J	2ff#	2ryy	.
6BB	8f#L	8bL	.	.	.
.	8e	8ff#	.	.	.
6DD#	.	.	.	.	.
.	8d#X	8b	.	.	.
6BB)	.	.	.	.	.
*	*	*	*v	*v	*
.	8c#J	8ff#J	.	.
=297	=297	=297	=297	=297
.	.	.	2gg#	.
(6DD#X	8BL	8bL	.	.
.	8B	8ff#	.	.
6BB	.	.	.	.
.	8B	8b	.	.
6DD#	.	.	.	.
.	8BJ	8ff#J	2aa	.
6BB	8BL	8bL	.	.
.	8B	8ff#	.	.
6DD#	.	.	.	.
.	8B	8b	.	.
6BB)	.	.	.	.
.	8BJ	8ff#J)	.	.
=298	=298	=298	=298	=298
.	.	.	2aa	f
(6EE	8c#L	8aL 8cc#	.	.
.	8c#	8a 8cc#	.	.
6E	.	.	.	.
.	8c#	8a 8cc#	.	.
6EE	.	.	.	.
.	8c#J	8aJ 8cc#	[2cc#	.
6E	8c#L	8aL 8cc#	.	.
.	8c#	8a 8cc#	.	.
6EE	.	.	.	.
.	8c#	8a 8cc#	.	.
6E)	.	.	.	.
.	8c#J	8aJ 8cc#	.	.
=299	=299	=299	=299	=299
.	.	.	2cc#]	.
(6EE	8c#L	8aL 8cc#	.	.
.	8c#	8a 8cc#	.	.
6E	.	.	.	.
.	8c#	8a 8cc#	.	.
6EE	.	.	.	.
.	8c#J	8aJ 8cc#	[2ff#	.
6E	8d#XL	8aL 8ccn	.	.
.	8d#	8a 8cc	.	.
6EE	.	.	.	.
.	8d#	8a 8cc	.	.
6E)	.	.	.	.
.	8d#J	8aJ 8cc	.	.
=300	=300	=300	=300	=300
.	.	.	2ff#]	.
(6EE	8d#XL	8aL 8ccn	.	.
.	8d#	8a 8cc	.	.
6E	.	.	.	.
.	8d#	8a 8cc	.	.
6EE	.	.	.	.
.	8d#J	8aJ 8cc	([2b	.
6E	8dnL	8aL 8b	.	.
.	8d	8a 8b	.	.
6EE	.	.	.	.
.	8d	8a 8b	.	.
6E)	.	.	.	.
.	8dJ	8aJ 8b	.	.
=301	=301	=301	=301	=301
!!linebreak:original
.	.	.	2b]	.
!!linebreak:original
6EE	8dL	8aL 8b	.	.
.	8d	8a 8b	.	.
6E	.	.	.	.
.	8d	8a 8b	.	.
6EE	.	.	.	.
.	8dJ	8aJ 8b	2ee)	.
6E	8dL	8g#L 8b	.	.
.	8d	8g# 8b	.	.
6EE	.	.	.	.
.	8d	8g# 8b	.	.
6E	.	.	.	.
.	8dJ	8g#J 8b	.	.
=302	=302	=302	=302	=302
.	.	.	4c# 4a	ff
4AA 4E	4E 4c#	4e 4a	.	.
.	.	.	4r	.
4r	4r	4r	.	.
.	.	.	4c# 4a	.
4AA 4E	4E 4c#	4e 4a	.	.
.	.	.	4r	.
4r	4r	4r	.	.
=303	=303	=303	=303	=303
.	.	.	2.ee	sf
2.AA 2.E	2.E 2.B	2.e 2.g#	.	.
.	.	.	8eeL	.
4AA 4E	8EL	8g#L	8eeJ	.
.	8EJ	8g#J	.	.
=304	=304	=304	=304	=304
.	.	.	8cc#L	.
4AA 4E	8EL 8A	8aL	8cc#	.
.	8E 8A	8a	8b	.
4AA 4E	8E 8B	8e	8bJ	.
.	8EJ 8B	8eJ	8aL	.
4AA 4E	8EL 8c#	8eL	8a	.
.	8E 8c#	8e	8a	.
4AA 4E	8E 8c#	8e	8aJ	.
.	8EJ 8c#	8eJ	.	.
=305	=305	=305	=305	=305
.	.	.	8g#L	.
2.AA 2.E	8EL 8B	8eL	8g#	.
.	8E 8B	8e	8f#	.
.	8E 8A	8e	8f#J	.
.	8EJ 8A	8eJ	8eL	.
.	8EL 8G#	8eL	8e	.
.	8E 8G#	8e	8e	.
4r	8E 8G#	8e	8eJ	.
.	8EJ 8G#	8eJ	.	.
=306	=306	=306	=306	=306
.	.	.	4a	.
4A	4A	4a	.	.
.	.	.	4r	.
4r	4r	4r	.	.
.	.	.	4a	.
4A	4A	4a	.	.
.	.	.	4r	.
4r	4r	4r	.	.
=307	=307	=307	=307	=307
.	.	.	4d#X 4b	.
4F#	4B	4a	.	.
.	.	.	4r	.
4r	4r	4r	.	.
.	.	.	4d# 4b	.
4F#	4B	4a	.	.
.	.	.	4r	<
4r	4r	4r	.	.
=308	=308	=308	=308	=308
.	.	.	4g# 4ee	.
4E 4B	4B 4e	4b 4ee	.	.
.	.	.	4r	.
4r	4r	4r	.	.
.	.	.	4g# 4ee	.
4E 4B	4B 4e	4b 4ee	.	.
.	.	.	4r	.
4r	4r	4r	.	.
=309	=309	=309	=309	=309
.	.	.	4a 4ggn	.
4C# 4A	4A 4e	4a 4ee	.	.
.	.	.	4r	.
4r	4r	4r	.	.
.	.	.	4a 4gg	.
4C# 4A	4A 4e	4a 4ee	.	.
.	.	.	4r	[
4r	4r	4r	.	.
=310	=310	=310	=310	=310
!!linebreak:original
.	.	.	(8qqd/L	.
.	.	.	8qqa/J	.
.	.	.	[1ff#)	.
!!linebreak:original
8DL	8DL	8dL	.	.
8F#	8F#	8f#	.	.
8E	8E	8e	.	.
8GnJ	8GnJ	8gnJ	.	.
8F#L	8F#L	8f#L	.	.
8A	8A	8a	.	.
8G	8G	8g	.	.
8BJ	8BJ	8bJ	.	.
=311	=311	=311	=311	=311
.	.	.	2.ff#_	.
8AL	8AL	8aL	.	.
8c#	8c#	8cc#	.	.
8B	8B	8b	.	.
8dJ	8dJ	8ddJ	.	.
8c#L	8c#L	8cc#L	.	.
8e	8e	8ee	8ff#L]	.
8d	8d	8dd	8ff#J	.
8f#J	8f#J	8ff#J	.	.
=312	=312	=312	=312	=312
*	*	*	*^	*
.	.	.	1gg#Xt	8gg#yy	.
8E#XL	8E#XL	8e#XL	.	32aayy	.
.	.	.	.	32gg#yy	.
.	.	.	.	32aayy	.
.	.	.	.	32gg#yy	.
8G#X	8G#	8g#	.	32aayy	.
.	.	.	.	32gg#yy	.
.	.	.	.	32aayy	.
.	.	.	.	32gg#yy	.
8F#	8F#	8f#	.	32aayy	.
.	.	.	.	32gg#yy	.
.	.	.	.	32aayy	.
.	.	.	.	32gg#yy	.
8AJ	8AJ	8aJ	.	32aayy	.
.	.	.	.	32gg#yy	.
.	.	.	.	32aayy	.
.	.	.	.	32gg#yy	.
8G#L	8G#L	8g#L	.	32aayy	.
.	.	.	.	32gg#yy	.
.	.	.	.	32aayy	.
.	.	.	.	32gg#yy	.
8B	8B	8b	.	32aayy	.
.	.	.	.	32gg#yy	.
.	.	.	.	32aayy	.
.	.	.	.	32gg#yy	.
8A	8A	8a	.	32aayy	.
.	.	.	.	32gg#yy	.
.	.	.	.	32aayy	.
.	.	.	.	32gg#yy	.
*	*	*	*v	*v	*
8c#J	8c#J	8cc#J	.	.
=313	=313	=313	=313	=313
.	.	.	1gg#	.
8BL	8BL	8bL	.	.
8d	8d	8dd	.	.
8c#	8c#	8cc#	.	.
8e#XJ	8e#XJ	8ee#XJ	.	.
8dL	8dL	8ddL	.	.
8f#	8f#	8ff#	.	.
8e#	8e#	8een	.	.
8g#J	8g#J	8gg#J	.	.
=314	=314	=314	=314	=314
.	.	.	2aa	.
8F#L	8c#L	8aL	.	.
8F#	8c#	8a	.	.
8F#	8c#	8a	.	.
8F#J	8c#J	8aJ	[2a [2aa	.
8F#L	8c#L	8aL	.	.
8F#	8c#	8a	.	.
8F#	8c#	8a	.	.
8F#J	8c#J	8aJ	.	.
=315	=315	=315	=315	=315
.	.	.	2a] 2aa]	.
8F#L	8dL	8bL	.	.
8F#	8d	8b	.	.
8F#	8d	8b	.	.
8F#J	8dJ	8bJ	[2a [2aa	.
8FnL	8d#XL	8b#XL	.	.
8F	8d#	8b#	.	.
8F	8d#	8b#	.	.
8FJ	8d#J	8b#J	.	.
=316	=316	=316	=316	=316
.	.	.	2a] 2aa]	.
8EL	8eL	8cc#L	.	.
8E	8e	8cc#	.	.
8E	8e	8cc#	.	.
8EJ	8eJ	8cc#J	[2a [2aa	.
8EL	8e#XL	8ddL	.	.
8E	8e#	8dd	.	.
8E	8e#	8dd	.	.
8EJ	8e#J	8ddJ	.	.
=317	=317	=317	=317	=317
!!linebreak:original
.	.	.	2a] 2aa]	.
!!linebreak:original
8EEL	8f#L	8dd#XL	.	.
8EE	8f#	8dd#	.	.
8EE	8f#	8dd#	.	.
8EEJ	8f#J	8dd#J	2b 2gg#	.
8EL	8enL	8ddnL 8ee	.	.
8E	8e	8dd 8ee	.	.
8E	8e	8dd 8ee	.	.
8EJ	8eJ	8ddJ 8ee	.	.
=318	=318	=318	=318	=318
.	.	.	4a 4aa	.
4AA	4a	4cc# 4ee	.	.
.	.	.	4r	.
4r	8eL 8ee	4r	.	.
.	8eJ 8ee	.	4ee 4bb	.
4E	8eL 8ee	4g# 4b 4ee	.	.
.	8e 8ee	.	4r	.
4r	8e 8ee	4r	.	.
.	8eJ 8ee	.	.	.
=319	=319	=319	=319	=319
.	.	.	4ee 4ccc#	.
4A	8eL 8ee	4a 4cc# 4ee	.	.
.	8e 8ee	.	4r	.
4r	8e 8ee	4r	.	.
.	8eJ 8ee	.	4ee 4eee	.
4E	8eL 8ee	4g# 4b 4ee	.	.
.	8e 8ee	.	4r	.
4r	8e 8ee	4r	.	.
.	8eJ 8ee	.	.	.
=320	=320	=320	=320	=320
.	.	.	4ee 4ccc#	.
4AA	8eL 8ee	4a 4cc# 4ee	.	.
.	8e 8ee	.	4r	.
4r	8e 8ee	4r	.	.
.	8eJ 8ee	.	4ee 4bb	.
4E	8eL 8ee	4g# 4b 4ee	.	.
.	8e 8ee	.	4r	.
4r	8e 8ee	4r	.	.
.	8eJ 8ee	.	.	.
=321	=321	=321	=321	=321
.	.	.	4ee 4ccc#	.
4A	8eL 8ee	4a 4cc# 4ee	.	.
.	8e 8ee	.	4r	.
4r	8e 8ee	4r	.	.
.	8eJ 8ee	.	4ee 4eee	.
4E	8eL 8ee	4g# 4b 4ee	.	.
.	8e 8ee	.	4r	.
4r	8e 8ee	4r	.	.
.	8eJ 8ee	.	.	.
=322	=322	=322	=322	=322
.	.	.	4ee 4ccc#	.
4AA	4a	4a 4cc# 4ee	.	.
.	.	.	4r	.
4r	4r	4r	.	.
.	.	.	2r	.
2r	2r	2r	.	.
=323	=323	=323	=323	=323
.	.	.	4eee	f
4e	4e 4b	4g# 4b 4ee	.	.
.	.	.	4r	.
4r	4r	4r	.	.
.	.	.	2r	.
4E	2r	2r	.	.
4r	.	.	.	.
=324	=324	=324	=324	=324
.	.	.	4aaa	.
4A	4a	4a 4cc# 4ee	.	.
.	.	.	4r	f
4r	4r	4r	.	.
.	.	.	2r	.
4AA	2r	2r	.	.
4r	.	.	.	.
==	==	==	==	==
*-	*-	*-	*-	*-
!!!system-decoration: [(s1,s2,s3,s4)]
